;FLAVOR:Marlin
;TIME:2277
;Filament used: 1.57087m
;Layer height: 0.2
;MINX:83.589
;MINY:81.249
;MINZ:0.2
;MAXX:116.411
;MAXY:118.801
;MAXZ:9.6
;Generated with Cura_SteamEngine main
M82 ;absolute extrusion mode
G21 ; set units to millimeters
G90 ; use absolute positioning
M82 ; absolute extrusion mode
M104 S225.0 ; set extruder temp
M140 S60 ; set bed temp
M190 S60 ; wait for bed temp
M109 S225.0 ; wait for extruder temp
G28 W ; home all without mesh bed level
G80 ; mesh bed leveling
G92 E0.0 ; reset extruder distance position
G1 Y-3.0 F1000.0 ; go outside print area
G1 X60.0 E9.0 F1000.0 ; intro line
G1 X100.0 E21.5 F1000.0 ; intro line
G92 E0.0 ; reset extruder distance position
G92 E0
G92 E0
G1 F1500 E-4
;LAYER_COUNT:48
;LAYER:0
M107
;MESH:Bearing Roller.stl(2)
G0 F3600 X84.874 Y100.524 Z0.2
;TYPE:WALL-INNER
G1 F1500 E0
G1 F754.7 X84.988 Y101.209 E0.02754
G1 F750 X85.304 Y102.106 E0.0655
G1 X85.715 Y102.8 E0.09769
G1 F753.1 X86.156 Y103.332 E0.12516
G1 F748.4 X86.664 Y103.817 E0.15325
G1 F745.3 X87.192 Y104.187 E0.17914
G1 F754.7 X87.722 Y104.464 E0.20286
G1 F753.1 X88.222 Y104.657 E0.22416
G1 F750 X88.878 Y104.836 E0.2513
G1 F751.6 X89.559 Y104.899 E0.27854
G1 F750 X90.433 Y104.864 E0.31345
G1 F753.1 X91.204 Y104.688 E0.34489
G1 F748.4 X91.953 Y104.393 E0.37708
G1 F743.8 X92.543 Y104.031 E0.40494
G1 F746.9 X92.951 Y103.715 E0.42562
G1 F748.4 X93.457 Y103.212 E0.45416
G1 F757.9 X93.88 Y102.654 E0.48181
G1 F762.7 X94.223 Y102.027 E0.50986
G1 F756.3 X94.413 Y101.538 E0.53063
G1 F750 X94.594 Y100.876 E0.55802
G1 X94.658 Y100.189 E0.58556
G1 F756.3 X94.636 Y99.478 E0.61371
G1 F754.7 X94.547 Y98.946 E0.63511
G1 F753.1 X94.42 Y98.465 E0.65488
G1 F751.6 X94.152 Y97.794 E0.68366
G1 X93.787 Y97.195 E0.71159
G1 F757.9 X93.469 Y96.787 E0.73203
G1 F756.3 X93.094 Y96.398 E0.75341
G1 F757.9 X92.712 Y96.076 E0.77314
G1 F753.1 X91.969 Y95.601 E0.80819
G1 F746.9 X91.299 Y95.337 E0.83706
G1 X90.63 Y95.155 E0.86484
G1 F753.1 X89.948 Y95.09 E0.89207
G1 F761.1 X89.227 Y95.113 E0.92044
G1 F753.1 X88.543 Y95.229 E0.94802
G1 F745.3 X87.886 Y95.459 E0.97597
G1 F746.9 X87.419 Y95.679 E0.99666
G1 F748.4 X86.818 Y96.063 E1.02519
G1 F754.7 X86.287 Y96.517 E1.0529
G1 F761.1 X85.819 Y97.056 E1.08097
G1 F754.7 X85.545 Y97.472 E1.10073
G1 F750 X85.16 Y98.236 E1.13488
G1 F751.6 X84.911 Y99.12 E1.17145
G1 F746.9 X84.853 Y99.8 E1.19881
G1 F750 X84.874 Y100.524 E1.22772
G0 F3600 X85.48 Y101.225
G1 F761.1 X85.344 Y100.463 E1.25816
G1 F750 X85.338 Y99.818 E1.2839
G1 F746.9 X85.387 Y99.165 E1.31015
G1 F757.9 X85.689 Y98.185 E1.35065
G1 F761.1 X86.198 Y97.339 E1.38948
G1 F762.7 X86.674 Y96.792 E1.41794
G1 F764.3 X87.279 Y96.32 E1.44799
G1 F762.7 X87.559 Y96.147 E1.46091
G1 F761.1 X88.402 Y95.75 E1.49756
G1 X89.281 Y95.583 E1.53275
G1 X89.92 Y95.563 E1.55789
G1 X90.695 Y95.648 E1.58855
G1 F766 X91.632 Y95.963 E1.62719
G1 F769.2 X92.391 Y96.418 E1.66162
G1 F770.9 X92.92 Y96.884 E1.689
G1 F762.7 X93.373 Y97.418 E1.71648
G1 F754.7 X93.79 Y98.131 E1.74924
G1 F757.9 X94.028 Y98.779 E1.77651
G1 F759.5 X94.172 Y99.552 E1.8075
G1 X94.18 Y100.361 E1.83939
G1 F762.7 X94.079 Y100.986 E1.86423
G1 F766 X93.823 Y101.777 E1.89673
G1 F767.6 X93.487 Y102.401 E1.92436
G1 F769.2 X92.903 Y103.146 E1.9612
G1 F767.6 X91.949 Y103.866 E2.00781
G1 F762.7 X91.089 Y104.226 E2.0444
G1 F761.1 X90.799 Y104.311 E2.05629
G1 F759.5 X89.805 Y104.442 E2.0958
G1 F756.3 X88.886 Y104.355 E2.13234
G1 F757.9 X87.998 Y104.073 E2.16914
G1 F761.1 X87.413 Y103.767 E2.1951
G1 F762.7 X86.762 Y103.286 E2.22687
G1 F764.3 X86.202 Y102.665 E2.25962
G1 X85.818 Y102.056 E2.28781
G1 F762.7 X85.48 Y101.225 E2.32302
G0 F3600 X85.761 Y100.315
G1 F900 X85.809 Y99.279 E2.35752
G1 X86.118 Y98.31 E2.39135
G1 X86.551 Y97.595 E2.41915
G1 X86.983 Y97.102 E2.44095
G1 X87.546 Y96.663 E2.4647
G1 X87.742 Y96.544 E2.47232
G1 X88.575 Y96.165 E2.50276
G1 X89.341 Y96.015 E2.52872
G1 X89.88 Y95.998 E2.54666
G1 X90.631 Y96.085 E2.5718
G1 X91.412 Y96.347 E2.5992
G1 X92.119 Y96.761 E2.62645
G1 X92.608 Y97.186 E2.648
G1 X93.014 Y97.668 E2.66896
G1 X93.41 Y98.362 E2.69554
G1 X93.575 Y98.805 E2.71126
G1 X93.738 Y99.576 E2.73747
G1 X93.737 Y100.392 E2.76461
G1 X93.658 Y100.871 E2.78076
G1 X93.432 Y101.573 E2.80529
G1 X93.123 Y102.162 E2.82741
G1 X92.601 Y102.808 E2.85503
G1 X91.777 Y103.456 E2.8899
G1 X90.857 Y103.849 E2.92317
G1 X89.823 Y104.002 E2.95794
G1 X88.974 Y103.924 E2.98629
G1 X88.215 Y103.687 E3.01274
G1 X87.639 Y103.393 E3.03425
G1 X87.009 Y102.911 E3.06063
G1 X86.563 Y102.416 E3.08279
G1 X86.215 Y101.87 E3.10433
G1 X85.91 Y101.124 E3.13113
G1 X85.761 Y100.315 E3.15849
G0 F3600 X84.41 Y99.787
G1 F900 X84.438 Y100.567 E3.18445
G1 X84.559 Y101.317 E3.20972
G1 X84.875 Y102.217 E3.24145
G1 X85.351 Y103.052 E3.27342
G1 X85.834 Y103.631 E3.29849
G1 X86.384 Y104.163 E3.32394
G1 X87.017 Y104.589 E3.34932
G1 X87.528 Y104.857 E3.36851
G1 X88.069 Y105.072 E3.38788
G1 X88.8 Y105.27 E3.41307
G1 X89.546 Y105.339 E3.43798
G1 X90.495 Y105.305 E3.46957
G1 X91.334 Y105.108 E3.49823
G1 X92.151 Y104.791 E3.52738
G1 X92.794 Y104.393 E3.55253
G1 X93.243 Y104.047 E3.57138
G1 X93.79 Y103.501 E3.59709
G1 X94.247 Y102.891 E3.62244
G1 X94.618 Y102.213 E3.64815
G1 X94.831 Y101.678 E3.6673
G1 X95.028 Y100.955 E3.69222
G1 X95.098 Y100.202 E3.71738
G1 X95.072 Y99.462 E3.742
G1 X94.982 Y98.866 E3.76205
G1 X94.835 Y98.328 E3.7806
G1 X94.549 Y97.596 E3.80674
G1 X94.146 Y96.946 E3.83218
G1 X93.801 Y96.5 E3.85093
G1 X93.403 Y96.086 E3.87003
G1 X92.972 Y95.723 E3.88877
G1 X92.171 Y95.207 E3.92046
G1 X91.438 Y94.918 E3.94667
G1 X90.709 Y94.719 E3.9718
G1 X89.96 Y94.652 E3.99682
G1 X89.184 Y94.678 E4.02264
G1 X88.434 Y94.799 E4.04791
G1 X87.718 Y95.05 E4.07314
G1 X87.205 Y95.294 E4.09204
G1 X86.555 Y95.709 E4.11769
G1 X85.978 Y96.208 E4.14306
G1 X85.471 Y96.791 E4.16876
G1 X85.164 Y97.25 E4.18712
G1 X84.739 Y98.097 E4.21864
G1 X84.478 Y99.042 E4.25125
G1 X84.41 Y99.787 E4.27613
G0 F3600 X84.009 Y99.776
G1 F900 X84.038 Y100.606 E4.30375
G1 X84.17 Y101.416 E4.33105
G1 X84.509 Y102.383 E4.36513
G1 X85.021 Y103.281 E4.39951
G1 X85.54 Y103.903 E4.42646
G1 X86.131 Y104.476 E4.45384
G1 X86.812 Y104.933 E4.48111
G1 X87.36 Y105.221 E4.5017
G1 X87.943 Y105.452 E4.52256
G1 X88.728 Y105.665 E4.54961
G1 X89.535 Y105.74 E4.57657
G1 X90.546 Y105.703 E4.61022
G1 X91.453 Y105.491 E4.6412
G1 X92.33 Y105.151 E4.67248
G1 X93.022 Y104.723 E4.69955
G1 X93.508 Y104.348 E4.71996
G1 X94.092 Y103.764 E4.74743
G1 X94.585 Y103.108 E4.77473
G1 X94.981 Y102.384 E4.80217
G1 X95.211 Y101.805 E4.82289
G1 X95.424 Y101.026 E4.84975
G1 X95.499 Y100.213 E4.87691
G1 X95.472 Y99.448 E4.90237
G1 X95.469 Y99.383 E4.90453
G1 X95.373 Y98.781 E4.92481
G1 X95.215 Y98.202 E4.94477
G1 X94.908 Y97.417 E4.97281
G1 X94.476 Y96.717 E5.00017
G1 X94.104 Y96.238 E5.02034
G1 X93.676 Y95.793 E5.04087
G1 X93.21 Y95.401 E5.06113
G1 X92.355 Y94.849 E5.09498
G1 X91.565 Y94.538 E5.12321
G1 X90.78 Y94.324 E5.15028
G1 X89.972 Y94.251 E5.17726
G1 X89.146 Y94.279 E5.20475
G1 X88.335 Y94.41 E5.23207
G1 X87.565 Y94.68 E5.25921
G1 X87.011 Y94.943 E5.27961
G1 X86.315 Y95.388 E5.30708
G1 X85.694 Y95.924 E5.33437
G1 X85.153 Y96.548 E5.36184
G1 X84.817 Y97.049 E5.3819
G1 X84.363 Y97.955 E5.41561
G1 X84.082 Y98.97 E5.45063
G1 X84.009 Y99.776 E5.47755
G0 F3600 X84.309 Y99.781
G0 X85.866 Y100.335
G0 X86.161 Y100.281
G1 F900 X86.21 Y99.351 E5.50853
G1 X86.486 Y98.474 E5.53911
G1 X86.88 Y97.821 E5.56447
G1 X87.276 Y97.381 E5.58416
G1 X87.792 Y96.979 E5.60592
G1 X87.909 Y96.907 E5.61049
G1 X88.676 Y96.553 E5.63858
G1 X89.396 Y96.412 E5.66298
G1 X89.855 Y96.398 E5.67826
G1 X90.564 Y96.485 E5.70202
G1 X91.248 Y96.715 E5.72602
G1 X91.856 Y97.071 E5.74945
G1 X92.319 Y97.464 E5.76965
G1 X92.663 Y97.873 E5.78743
G1 X93.042 Y98.521 E5.81239
G1 X93.188 Y98.911 E5.82624
G1 X93.335 Y99.611 E5.85003
G1 X93.337 Y100.356 E5.87481
G1 X93.271 Y100.766 E5.88863
G1 X93.06 Y101.425 E5.91164
G1 X92.788 Y101.94 E5.93101
G1 X92.317 Y102.525 E5.95599
G1 X91.576 Y103.106 E5.98731
G1 X90.741 Y103.463 E6.01751
G1 X89.819 Y103.594 E6.04849
G1 X89.056 Y103.531 E6.07395
G1 X88.363 Y103.315 E6.09809
G1 X87.832 Y103.038 E6.11801
G1 X87.259 Y102.593 E6.14214
G1 X86.904 Y102.196 E6.15986
G1 X86.589 Y101.715 E6.17898
G1 X86.296 Y101.016 E6.20419
G1 X86.161 Y100.281 E6.22905
G0 F3600 X86.565 Y100.264
;TYPE:WALL-OUTER
G1 F900 X86.604 Y99.421 E6.25711
G1 X86.856 Y98.63 E6.28473
G1 X87.194 Y98.072 E6.30642
G1 X87.523 Y97.698 E6.32299
G1 X88.038 Y97.295 E6.34474
G1 X88.077 Y97.271 E6.34626
G1 X88.799 Y96.939 E6.3727
G1 X89.451 Y96.808 E6.39481
G1 X89.805 Y96.795 E6.4066
G1 X90.458 Y96.872 E6.42847
G1 X91.072 Y97.078 E6.45001
G1 X91.639 Y97.408 E6.47183
G1 X92.03 Y97.742 E6.48893
G1 X92.347 Y98.119 E6.50531
G1 X92.67 Y98.678 E6.52679
G1 X92.802 Y99.017 E6.53888
G1 X92.937 Y99.658 E6.56067
G1 X92.938 Y100.319 E6.58266
G1 X92.885 Y100.66 E6.59414
G1 X92.687 Y101.277 E6.61569
G1 X92.442 Y101.732 E6.63288
G1 X92.034 Y102.241 E6.65457
G1 X91.386 Y102.75 E6.68198
G1 X90.635 Y103.072 E6.70916
G1 X89.805 Y103.194 E6.73706
G1 X89.146 Y103.137 E6.75906
G1 X88.526 Y102.949 E6.78061
G1 X88.07 Y102.715 E6.79765
G1 X87.527 Y102.295 E6.82049
G1 X87.211 Y101.94 E6.83629
G1 X86.937 Y101.517 E6.85306
G1 X86.687 Y100.913 E6.8748
G1 X86.565 Y100.264 E6.89676
G0 F3600 X86.574 Y100.064
G0 X85.873 Y100.028
G0 X84.309 Y99.781
G0 X83.609 Y99.765
G1 F900 X83.639 Y100.645 E6.92605
G1 X83.78 Y101.514 E6.95533
G1 X84.069 Y102.338 E6.98437
G1 X84.25 Y102.737 E6.99895
G1 X84.691 Y103.51 E7.02855
G1 X85.246 Y104.176 E7.05738
G1 X85.878 Y104.788 E7.08664
G1 X86.607 Y105.277 E7.11584
G1 X87.192 Y105.585 E7.13783
G1 X87.816 Y105.832 E7.16015
G1 X88.657 Y106.061 E7.18914
G1 X89.524 Y106.14 E7.21809
G1 X90.602 Y106.102 E7.25397
G1 X91.571 Y105.874 E7.28708
G1 X92.509 Y105.511 E7.32053
G1 X93.25 Y105.052 E7.34952
G1 X93.772 Y104.649 E7.37146
G1 X94.395 Y104.027 E7.40074
G1 X94.922 Y103.326 E7.42991
G1 X95.344 Y102.554 E7.45917
G1 X95.591 Y101.932 E7.48143
G1 X95.819 Y101.098 E7.51019
G1 X95.899 Y100.224 E7.53938
G1 X95.872 Y99.434 E7.56567
G1 X95.868 Y99.344 E7.56866
G1 X95.765 Y98.697 E7.59045
G1 X95.595 Y98.076 E7.61187
G1 X95.268 Y97.237 E7.64182
G1 X94.805 Y96.489 E7.67108
G1 X94.407 Y95.976 E7.69267
G1 X93.95 Y95.501 E7.7146
G1 X93.448 Y95.079 E7.73641
G1 X92.539 Y94.491 E7.77242
G1 X91.691 Y94.158 E7.80272
G1 X90.852 Y93.928 E7.83165
G1 X89.983 Y93.85 E7.86067
G1 X89.107 Y93.88 E7.88982
G1 X88.236 Y94.02 E7.91916
G1 X87.413 Y94.31 E7.94819
G1 X86.817 Y94.593 E7.97013
G1 X86.075 Y95.066 E7.9994
G1 X85.411 Y95.64 E8.02859
G1 X84.834 Y96.304 E8.05785
G1 X84.471 Y96.847 E8.07957
G1 X84.075 Y97.637 E8.10897
G1 X83.924 Y98.04 E8.12328
G1 X83.687 Y98.898 E8.15289
G1 X83.609 Y99.765 E8.18184
G0 F3600 X83.615 Y99.965
G0 X84.616 Y99.932
G1 F1500 E4.18184
;MESH:Bearing Roller.stl(1)
G0 F3600 X87.376 Y102.483
G0 X88.416 Y103.166
G0 X89.81 Y103.436
G0 X90.685 Y103.309
G0 X95.62 Y100.891
G0 X97.957 Y100.624
G0 X99.089 Y101.207
;TYPE:WALL-INNER
G1 F1500 E8.18184
G1 F748.4 X99.321 Y101.875 E8.21012
G1 F756.3 X99.563 Y102.377 E8.23218
G1 F751.6 X99.928 Y102.936 E8.25877
G1 X100.253 Y103.333 E8.2792
G1 X100.762 Y103.818 E8.30721
G1 F743.8 X101.343 Y104.209 E8.33539
G1 F746.9 X101.81 Y104.456 E8.35656
G1 F753.1 X102.309 Y104.655 E8.37792
G1 F750 X102.978 Y104.835 E8.40557
G1 F746.9 X103.802 Y104.921 E8.43877
G1 F742.3 X104.714 Y104.835 E8.47571
G1 F750 X105.386 Y104.66 E8.50343
G1 F746.9 X106.05 Y104.392 E8.53213
G1 F745.3 X106.644 Y104.032 E8.56002
G1 F750 X107.05 Y103.714 E8.5806
G1 F751.6 X107.559 Y103.213 E8.60905
G1 F756.3 X107.977 Y102.653 E8.63671
G1 X108.322 Y102.027 E8.665
G1 F757.9 X108.515 Y101.539 E8.68573
G1 F748.4 X108.691 Y100.876 E8.71316
G1 F746.9 X108.76 Y100.189 E8.74083
G1 F756.3 X108.735 Y99.478 E8.76899
G1 F753.1 X108.648 Y98.946 E8.79042
G1 X108.519 Y98.466 E8.81017
G1 X108.253 Y97.794 E8.8389
G1 X107.892 Y97.206 E8.86632
G1 X107.559 Y96.779 E8.88784
G1 F748.4 X107.191 Y96.4 E8.90897
G1 F753.1 X106.812 Y96.076 E8.92879
G1 F748.4 X106.068 Y95.603 E8.96405
G1 F743.8 X105.399 Y95.337 E8.99302
G1 F751.6 X104.729 Y95.153 E9.0207
G1 F753.1 X104.048 Y95.091 E9.04788
G1 F757.9 X103.327 Y95.112 E9.07637
G1 F751.6 X102.643 Y95.23 E9.10401
G1 F745.3 X101.985 Y95.457 E9.13197
G1 F754.7 X101.507 Y95.683 E9.15294
G1 F759.5 X101.054 Y95.962 E9.17391
G1 F750 X100.501 Y96.398 E9.20201
G1 F743.8 X99.929 Y97.049 E9.23689
G1 F751.6 X99.568 Y97.594 E9.26293
G1 F750 X99.249 Y98.271 E9.2928
G1 F745.3 X99.017 Y99.075 E9.3264
G1 F754.7 X98.948 Y99.814 E9.35584
G1 F761.1 X98.972 Y100.525 E9.38382
G1 F751.6 X99.089 Y101.207 E9.41138
G0 F3600 X99.438 Y100.472
G1 F757.9 X99.421 Y99.767 E9.43923
G1 F751.6 X99.498 Y99.104 E9.46582
G1 F745.3 X99.706 Y98.43 E9.49415
G1 F751.6 X99.961 Y97.866 E9.5188
G1 F762.7 X100.44 Y97.15 E9.55261
G1 F751.6 X100.834 Y96.755 E9.57483
G1 F750 X101.319 Y96.354 E9.59995
G1 F757.9 X101.727 Y96.104 E9.61885
G1 F761.1 X102.517 Y95.753 E9.65285
G1 F764.3 X103.267 Y95.597 E9.68285
G1 F762.7 X103.864 Y95.553 E9.70634
G1 F761.1 X104.723 Y95.634 E9.74027
G1 F759.5 X105.668 Y95.932 E9.77933
G1 F754.7 X106.612 Y96.499 E9.823
G1 F753.1 X106.998 Y96.893 E9.84493
G1 F759.5 X107.385 Y97.288 E9.86672
G1 F761.1 X107.859 Y98.067 E9.90259
G1 F762.7 X108.119 Y98.768 E9.93193
G1 F764.3 X108.279 Y99.605 E9.9653
G1 F766 X108.276 Y100.354 E9.99458
G1 F767.6 X108.121 Y101.212 E10.02858
G1 X107.877 Y101.881 E10.05635
G1 F770.9 X107.452 Y102.598 E10.08871
G1 F772.5 X107.063 Y103.057 E10.11203
G1 F764.3 X106.359 Y103.652 E10.14813
G1 F745.3 X105.838 Y103.948 E10.17219
G1 F742.3 X105.199 Y104.23 E10.20036
G1 F756.3 X104.377 Y104.409 E10.23366
G1 F757.9 X103.684 Y104.426 E10.26103
G1 F756.3 X102.936 Y104.347 E10.29081
G1 F759.5 X102.162 Y104.101 E10.32281
G1 X101.244 Y103.604 E10.36396
G1 X100.487 Y102.905 E10.40457
G1 F761.1 X99.909 Y102.039 E10.44552
G1 X99.607 Y101.299 E10.47695
G1 X99.438 Y100.472 E10.51015
G0 F3600 X99.871 Y100.418
G1 F900 X99.861 Y99.754 E10.53224
G1 X99.934 Y99.17 E10.55181
G1 X100.179 Y98.404 E10.57856
G1 X100.405 Y97.97 E10.59484
G1 X100.874 Y97.321 E10.62147
G1 X101.455 Y96.79 E10.64765
G1 X101.559 Y96.719 E10.65184
G1 X101.844 Y96.531 E10.66319
G1 X102.593 Y96.193 E10.69052
G1 X103.336 Y96.027 E10.71584
G1 X103.825 Y95.991 E10.73215
G1 X104.644 Y96.067 E10.75951
G1 X105.435 Y96.312 E10.78705
G1 X106.308 Y96.824 E10.82071
G1 X107.035 Y97.562 E10.85517
G1 X107.472 Y98.278 E10.88307
G1 X107.698 Y98.882 E10.90452
G1 X107.845 Y99.665 E10.93101
G1 X107.843 Y100.314 E10.9526
G1 X107.701 Y101.097 E10.97907
G1 X107.474 Y101.712 E11.00087
G1 X107.05 Y102.404 E11.02786
G1 X106.756 Y102.751 E11.04299
G1 X106.007 Y103.374 E11.07539
G1 X105.054 Y103.819 E11.11038
G1 X104.219 Y103.979 E11.13865
G1 X103.573 Y103.984 E11.16014
G1 X102.983 Y103.903 E11.17995
G1 X102.347 Y103.704 E11.20211
G1 X101.476 Y103.219 E11.23527
G1 X100.851 Y102.648 E11.26343
G1 X100.289 Y101.822 E11.29666
G1 X100.034 Y101.192 E11.31926
G1 X99.871 Y100.418 E11.34557
G0 F3600 X98.659 Y101.316
G1 F900 X98.91 Y102.031 E11.37077
G1 X99.153 Y102.544 E11.38965
G1 X99.571 Y103.198 E11.41547
G1 X99.933 Y103.631 E11.43424
G1 X100.483 Y104.163 E11.45969
G1 X101.116 Y104.589 E11.48507
G1 X101.627 Y104.856 E11.50424
G1 X102.17 Y105.072 E11.52368
G1 X102.899 Y105.27 E11.54881
G1 X103.841 Y105.357 E11.58027
G1 X104.792 Y105.272 E11.61203
G1 X105.522 Y105.075 E11.63718
G1 X106.249 Y104.792 E11.66312
G1 X106.894 Y104.393 E11.68835
G1 X107.343 Y104.047 E11.7072
G1 X107.89 Y103.501 E11.73291
G1 X108.347 Y102.891 E11.75826
G1 X108.719 Y102.213 E11.78398
G1 X108.931 Y101.678 E11.80312
G1 X109.128 Y100.955 E11.82804
G1 X109.198 Y100.201 E11.85323
G1 X109.172 Y99.462 E11.87783
G1 X109.082 Y98.866 E11.89787
G1 X108.935 Y98.328 E11.91642
G1 X108.649 Y97.596 E11.94256
G1 X108.246 Y96.946 E11.968
G1 X107.901 Y96.5 E11.98675
G1 X107.502 Y96.086 E12.00588
G1 X107.072 Y95.723 E12.02459
G1 X106.271 Y95.206 E12.0563
G1 X105.538 Y94.919 E12.08248
G1 X104.807 Y94.719 E12.10769
G1 X104.06 Y94.652 E12.13264
G1 X103.284 Y94.678 E12.15846
G1 X102.534 Y94.799 E12.18373
G1 X101.817 Y95.05 E12.20899
G1 X101.298 Y95.298 E12.22813
G1 X100.805 Y95.602 E12.24739
