;FLAVOR:Marlin
;TIME:6334
;Filament used: 8.48098m
;Layer height: 0.2
;MINX:12.833
;MINY:12.488
;MINZ:0.2
;MAXX:187.208
;MAXY:188.37
;MAXZ:12.8
;Generated with Cura_SteamEngine 4.13.1
M82 ;absolute extrusion mode
G21 ; set units to millimeters
G90 ; use absolute positioning
M82 ; absolute extrusion mode
M104 S218.0 ; set extruder temp
M140 S60 ; set bed temp
M190 S60 ; wait for bed temp
M109 S218.0 ; wait for extruder temp
G28 W ; home all without mesh bed level
G80 ; mesh bed leveling
G92 E0.0 ; reset extruder distance position
G1 Y-3.0 F1000.0 ; go outside print area
G1 X60.0 E9.0 F1000.0 ; intro line
G1 X100.0 E21.5 F1000.0 ; intro line
G92 E0.0 ; reset extruder distance position
G92 E0
G92 E0
G1 F2100 E-0.8
;LAYER_COUNT:64
;LAYER:0
M107
;MESH:KeepUp.stl
G0 F3600 X42.666 Y37.096 Z0.2
;TYPE:WALL-INNER
G1 F2100 E0
G1 F2400 X42.141 Y37.054 E0.01752
G1 X37.661 Y37.054 E0.16652
G1 X37.661 Y14.473 E0.91757
G1 X41.621 Y14.473 E1.04928
G1 X182.317 Y175.187 E8.1536
G1 X183.021 Y175.992 E8.18917
G1 X185.222 Y178.508 E8.30035
G1 X185.222 Y178.76 E8.30873
G1 X182.859 Y176.397 E8.39063
G1 X164.446 Y157.982 E9.25677
G1 X160.318 Y153.857 E9.45086
G1 X157.829 Y151.366 E9.56798
G1 X157.01 Y150.549 E9.60646
G1 X154.521 Y148.058 E9.72358
G1 X153.702 Y147.241 E9.76206
G1 X151.212 Y144.749 E9.87923
G1 X150.393 Y143.932 E9.9177
G1 X147.904 Y141.441 E10.03483
G1 X147.085 Y140.624 E10.0733
G1 X144.596 Y138.133 E10.19042
G1 X143.777 Y137.316 E10.2289
G1 X141.287 Y134.824 E10.34607
G1 X140.468 Y134.007 E10.38455
G1 X137.979 Y131.516 E10.50167
G1 X137.16 Y130.699 E10.54014
G1 X134.671 Y128.208 E10.65727
G1 X133.852 Y127.391 E10.69574
G1 X131.363 Y124.899 E10.81289
G1 X127.235 Y120.774 E11.00699
G1 X124.746 Y118.283 E11.12411
G1 X123.927 Y117.466 E11.16258
G1 X121.438 Y114.975 E11.27971
G1 X120.619 Y114.158 E11.31818
G1 X118.129 Y111.666 E11.43535
G1 X117.31 Y110.849 E11.47383
G1 X114.821 Y108.358 E11.59095
G1 X114.002 Y107.541 E11.62943
G1 X111.513 Y105.05 E11.74655
G1 X110.694 Y104.233 E11.78502
G1 X108.205 Y101.741 E11.90217
G1 X104.077 Y97.616 E12.09627
G1 X101.588 Y95.125 E12.21339
G1 X100.769 Y94.308 E12.25187
G1 X98.28 Y91.816 E12.36901
G1 X94.152 Y87.691 E12.56311
G1 X91.663 Y85.2 E12.68023
G1 X90.844 Y84.383 E12.71871
G1 X88.355 Y81.892 E12.83583
G1 X87.536 Y81.075 E12.87431
G1 X85.046 Y78.583 E12.99147
G1 X84.227 Y77.766 E13.02995
G1 X81.738 Y75.275 E13.14707
G1 X80.919 Y74.458 E13.18555
G1 X78.43 Y71.967 E13.30267
G1 X77.611 Y71.15 E13.34115
G1 X75.122 Y68.658 E13.45829
G1 X70.994 Y64.533 E13.65239
G1 X68.505 Y62.042 E13.76951
G1 X67.686 Y61.225 E13.80799
G1 X65.197 Y58.733 E13.92513
G1 X64.378 Y57.916 E13.96361
G1 X44.491 Y38.027 E14.89908
G1 X44.104 Y37.697 E14.916
G1 X43.501 Y37.356 E14.93904
G1 X42.666 Y37.096 E14.96813
G0 F3600 X74.014 Y61.581
G1 F2400 X74.683 Y61.747 E14.99105
G1 X75.371 Y61.681 E15.01404
G1 X75.997 Y61.389 E15.03701
G1 X76.493 Y60.908 E15.05999
G1 X76.8 Y60.288 E15.083
G1 X76.882 Y59.608 E15.10579
G1 X76.739 Y58.937 E15.1286
G1 X76.442 Y58.448 E15.14763
G1 X51.053 Y29.445 E16.42967
G1 X50.589 Y29.071 E16.44949
G1 X49.972 Y28.861 E16.47117
G1 X49.518 Y28.826 E16.48631
G1 X48.873 Y28.948 E16.50815
G1 X48.262 Y29.307 E16.53172
G1 X47.815 Y29.85 E16.55511
G1 X47.59 Y30.465 E16.57689
G1 X47.561 Y30.806 E16.58827
G1 X47.561 Y36.161 E16.76638
G1 X47.687 Y36.926 E16.79217
G1 X48.085 Y37.657 E16.81985
G1 X48.37 Y37.968 E16.83388
G1 X73.531 Y61.264 E17.97436
G1 X74.014 Y61.581 E17.99358
G0 F3600 X74.176 Y61.209
G1 F2400 X74.713 Y61.342 E18.01198
G1 X75.264 Y61.289 E18.03039
G1 X75.767 Y61.055 E18.04884
G1 X76.165 Y60.669 E18.06728
G1 X76.411 Y60.172 E18.08572
G1 X76.477 Y59.626 E18.10402
G1 X76.362 Y59.087 E18.12235
G1 X76.118 Y58.685 E18.13799
G1 X50.775 Y29.735 E19.41769
G1 X50.393 Y29.427 E19.43401
G1 X49.891 Y29.256 E19.45165
G1 X49.54 Y29.229 E19.46336
G1 X49.016 Y29.328 E19.4811
G1 X48.526 Y29.616 E19.5
G1 X48.167 Y30.052 E19.51878
G1 X47.984 Y30.552 E19.53649
G1 X47.961 Y30.823 E19.54554
G1 X47.961 Y36.128 E19.72198
G1 X48.071 Y36.794 E19.74444
G1 X48.413 Y37.423 E19.76825
G1 X48.654 Y37.686 E19.78011
G1 X73.778 Y60.948 E20.91892
G1 X74.176 Y61.209 E20.93475
G0 F3600 X42.59 Y37.491
G1 F2400 X42.125 Y37.454 E20.95027
G1 X37.261 Y37.454 E21.11204
G1 X37.261 Y14.073 E21.8897
G1 X41.802 Y14.073 E22.04073
G1 X182.618 Y174.924 E29.15111
G1 X185.622 Y178.358 E29.30286
G1 X185.621 Y179.243 E29.33229
G1 X185.621 Y179.725 E29.34832
G1 X185.281 Y179.385 E29.35691
G1 X164.163 Y158.265 E30.35028
G1 X160.035 Y154.14 E30.54438
G1 X157.546 Y151.649 E30.6615
G1 X156.727 Y150.832 E30.69998
G1 X154.238 Y148.341 E30.8171
G1 X153.419 Y147.524 E30.85558
G1 X150.929 Y145.032 E30.97275
G1 X150.11 Y144.215 E31.01122
G1 X147.621 Y141.724 E31.12835
G1 X146.802 Y140.907 E31.16682
G1 X144.313 Y138.416 E31.28394
G1 X143.494 Y137.599 E31.32242
G1 X141.004 Y135.107 E31.43959
G1 X140.185 Y134.29 E31.47806
G1 X137.696 Y131.799 E31.59519
G1 X136.877 Y130.982 E31.63366
G1 X134.388 Y128.491 E31.75079
G1 X133.569 Y127.674 E31.78926
G1 X131.08 Y125.182 E31.90641
G1 X126.952 Y121.057 E32.1005
G1 X124.463 Y118.566 E32.21763
G1 X123.644 Y117.749 E32.2561
G1 X121.155 Y115.258 E32.37322
G1 X120.336 Y114.441 E32.4117
G1 X117.846 Y111.949 E32.52887
G1 X117.027 Y111.132 E32.56735
G1 X114.538 Y108.641 E32.68447
G1 X113.719 Y107.824 E32.72294
G1 X111.23 Y105.333 E32.84007
G1 X110.411 Y104.516 E32.87854
G1 X107.922 Y102.024 E32.99569
G1 X103.794 Y97.899 E33.18979
G1 X101.305 Y95.408 E33.30691
G1 X100.486 Y94.591 E33.34538
G1 X97.997 Y92.099 E33.46253
G1 X93.869 Y87.974 E33.65663
G1 X91.38 Y85.483 E33.77375
G1 X90.561 Y84.666 E33.81223
G1 X88.072 Y82.175 E33.92935
G1 X87.253 Y81.358 E33.96782
G1 X84.763 Y78.866 E34.08499
G1 X83.944 Y78.049 E34.12347
G1 X81.455 Y75.558 E34.24059
G1 X80.636 Y74.741 E34.27907
G1 X78.147 Y72.25 E34.39619
G1 X77.328 Y71.433 E34.43467
G1 X74.839 Y68.941 E34.55181
G1 X70.711 Y64.816 E34.74591
G1 X68.222 Y62.325 E34.86303
G1 X67.403 Y61.508 E34.90151
G1 X64.914 Y59.016 E35.01865
G1 X64.095 Y58.199 E35.05713
G1 X44.219 Y38.321 E35.99208
G1 X43.874 Y38.026 E36.00718
G1 X43.341 Y37.725 E36.02754
G1 X42.59 Y37.491 E36.0537
G0 F3600 X42.514 Y37.886
G1 F2400 X42.109 Y37.854 E36.06721
G1 X36.861 Y37.854 E36.24176
G1 X36.861 Y13.673 E37.04603
G1 X41.975 Y13.673 E37.21612
G1 X41.985 Y13.675 E37.21646
G1 X182.919 Y174.661 E44.3328
G1 X185.994 Y178.176 E44.48813
G1 X186.022 Y178.25 E44.49076
G1 X186.02 Y180.209 E44.55592
G1 X186.02 Y180.691 E44.57195
G1 X185.68 Y180.35 E44.58056
G1 X183.729 Y178.398 E44.67235
G1 X182.91 Y177.581 E44.71082
G1 X180.421 Y175.09 E44.82795
G1 X179.602 Y174.273 E44.86642
G1 X177.113 Y171.782 E44.98355
G1 X176.294 Y170.965 E45.02202
G1 X173.804 Y168.473 E45.13919
G1 X172.985 Y167.656 E45.17767
G1 X170.496 Y165.165 E45.29479
G1 X169.677 Y164.348 E45.33326
G1 X167.188 Y161.857 E45.45039
G1 X166.369 Y161.04 E45.48886
G1 X163.88 Y158.548 E45.60601
G1 X159.752 Y154.423 E45.80011
G1 X157.263 Y151.932 E45.91723
G1 X156.444 Y151.115 E45.9557
G1 X153.955 Y148.624 E46.07283
G1 X153.136 Y147.807 E46.1113
G1 X150.646 Y145.315 E46.22847
G1 X149.827 Y144.498 E46.26695
G1 X147.338 Y142.007 E46.38407
G1 X146.519 Y141.19 E46.42255
G1 X144.03 Y138.699 E46.53967
G1 X143.211 Y137.882 E46.57814
G1 X140.721 Y135.39 E46.69531
G1 X139.902 Y134.573 E46.73379
G1 X137.413 Y132.082 E46.85091
G1 X136.594 Y131.265 E46.88939
G1 X134.105 Y128.774 E47.00651
G1 X133.286 Y127.957 E47.04499
G1 X130.797 Y125.465 E47.16213
G1 X126.669 Y121.34 E47.35623
G1 X124.18 Y118.849 E47.47335
G1 X123.361 Y118.032 E47.51183
G1 X120.872 Y115.541 E47.62895
G1 X120.053 Y114.724 E47.66743
G1 X117.563 Y112.232 E47.7846
G1 X116.744 Y111.415 E47.82307
G1 X114.255 Y108.924 E47.94019
G1 X113.436 Y108.107 E47.97867
G1 X110.947 Y105.616 E48.09579
G1 X110.128 Y104.799 E48.13427
G1 X107.639 Y102.307 E48.25141
G1 X103.511 Y98.182 E48.44551
G1 X101.022 Y95.691 E48.56263
G1 X100.203 Y94.874 E48.60111
G1 X97.714 Y92.382 E48.71825
G1 X93.586 Y88.257 E48.91235
G1 X91.097 Y85.766 E49.02947
G1 X90.278 Y84.949 E49.06795
G1 X87.789 Y82.458 E49.18507
G1 X86.97 Y81.641 E49.22355
G1 X84.48 Y79.149 E49.34072
G1 X83.661 Y78.332 E49.37919
G1 X81.172 Y75.841 E49.49632
G1 X80.353 Y75.024 E49.53479
G1 X77.864 Y72.533 E49.65191
G1 X77.045 Y71.716 E49.69039
G1 X74.556 Y69.224 E49.80754
G1 X70.428 Y65.099 E50.00163
G1 X67.939 Y62.608 E50.11876
G1 X67.12 Y61.791 E50.15723
G1 X64.631 Y59.299 E50.27438
G1 X63.812 Y58.482 E50.31285
G1 X43.947 Y38.615 E51.24729
G1 X43.643 Y38.355 E51.26059
G1 X43.181 Y38.094 E51.27824
G1 X42.514 Y37.886 E51.30148
G0 F3600 X43.351 Y38.372
G0 X74.338 Y60.837
G1 F2400 X74.743 Y60.937 E51.31536
G1 X75.158 Y60.897 E51.32922
G1 X75.537 Y60.721 E51.34312
G1 X75.837 Y60.43 E51.35702
G1 X76.022 Y60.056 E51.3709
G1 X76.072 Y59.644 E51.3847
G1 X75.985 Y59.237 E51.39855
G1 X75.794 Y58.922 E51.4108
G1 X50.497 Y30.025 E52.68817
G1 X50.197 Y29.783 E52.70099
G1 X49.81 Y29.651 E52.71459
G1 X49.562 Y29.632 E52.72286
G1 X49.159 Y29.708 E52.7365
G1 X48.79 Y29.925 E52.75074
G1 X48.519 Y30.254 E52.76492
G1 X48.378 Y30.639 E52.77855
G1 X48.361 Y30.84 E52.78526
G1 X48.361 Y36.095 E52.96004
G1 X48.455 Y36.662 E52.97916
G1 X48.741 Y37.189 E52.9991
G1 X48.938 Y37.404 E53.0088
G1 X74.025 Y60.632 E54.14594
G1 X74.338 Y60.837 E54.15838
G0 F3600 X74.5 Y60.465
;TYPE:WALL-OUTER
G1 F2400 X74.772 Y60.532 E54.1677
G1 X75.052 Y60.505 E54.17705
G1 X75.307 Y60.387 E54.1864
G1 X75.509 Y60.191 E54.19576
G1 X75.633 Y59.94 E54.20507
G1 X75.667 Y59.662 E54.21439
G1 X75.608 Y59.387 E54.22374
G1 X75.47 Y59.159 E54.23261
G1 X50.219 Y30.315 E55.50764
G1 X50.001 Y30.139 E55.51696
G1 X49.729 Y30.046 E55.52652
G1 X49.584 Y30.035 E55.53136
G1 X49.302 Y30.088 E55.5409
G1 X49.054 Y30.234 E55.55047
G1 X48.871 Y30.456 E55.56004
G1 X48.772 Y30.726 E55.56961
G1 X48.761 Y30.857 E55.57398
G1 X48.761 Y36.062 E55.7471
G1 X48.839 Y36.53 E55.76288
G1 X49.069 Y36.955 E55.77895
G1 X49.222 Y37.122 E55.78649
G1 X74.272 Y60.316 E56.92195
G1 X74.5 Y60.465 E56.93101
G0 F3600 X74.694 Y60.512
G0 X74.622 Y60.804
G0 X43.549 Y38.487
G0 X42.461 Y37.984
G0 X42.438 Y38.281
G1 F2400 X42.093 Y38.254 E56.94252
G1 X36.461 Y38.254 E57.12984
G1 X36.461 Y13.273 E57.96071
G1 X42.015 Y13.273 E58.14544
G1 X42.168 Y13.304 E58.15063
G1 X42.25 Y13.371 E58.15415
G1 X183.22 Y174.398 E65.27231
G1 X186.344 Y177.969 E65.43011
G1 X186.422 Y178.177 E65.4375
G1 X186.42 Y180.988 E65.53099
G1 X186.377 Y181.118 E65.53555
G1 X186.265 Y181.222 E65.54063
G1 X186.127 Y181.25 E65.54532
G1 X185.926 Y181.163 E65.5526
G1 X183.446 Y178.681 E65.6693
G1 X182.627 Y177.864 E65.70778
G1 X180.138 Y175.373 E65.8249
G1 X179.319 Y174.556 E65.86337
G1 X176.83 Y172.065 E65.9805
G1 X176.011 Y171.248 E66.01897
G1 X173.521 Y168.756 E66.13614
G1 X172.702 Y167.939 E66.17462
G1 X170.213 Y165.448 E66.29174
G1 X169.394 Y164.631 E66.33022
G1 X166.905 Y162.14 E66.44734
G1 X166.086 Y161.323 E66.48581
G1 X163.597 Y158.831 E66.60296
G1 X159.469 Y154.706 E66.79706
G1 X156.98 Y152.215 E66.91418
G1 X156.161 Y151.398 E66.95266
G1 X153.672 Y148.907 E67.06978
G1 X152.853 Y148.09 E67.10825
G1 X150.363 Y145.598 E67.22542
G1 X149.544 Y144.781 E67.2639
G1 X147.055 Y142.29 E67.38102
G1 X146.236 Y141.473 E67.4195
G1 X143.747 Y138.982 E67.53662
G1 X142.928 Y138.165 E67.57509
G1 X140.438 Y135.673 E67.69226
G1 X139.619 Y134.856 E67.73074
G1 X137.13 Y132.365 E67.84786
G1 X136.311 Y131.548 E67.88634
G1 X133.822 Y129.057 E68.00346
G1 X133.003 Y128.24 E68.04194
G1 X130.514 Y125.748 E68.15908
G1 X126.386 Y121.623 E68.35318
G1 X123.897 Y119.132 E68.4703
G1 X123.078 Y118.315 E68.50878
G1 X120.589 Y115.824 E68.6259
G1 X119.77 Y115.007 E68.66438
G1 X117.28 Y112.515 E68.78155
G1 X116.461 Y111.698 E68.82002
G1 X113.972 Y109.207 E68.93714
G1 X113.153 Y108.39 E68.97562
G1 X110.664 Y105.899 E69.09274
G1 X109.845 Y105.082 E69.13122
G1 X107.356 Y102.59 E69.24836
G1 X103.228 Y98.465 E69.44246
G1 X100.739 Y95.974 E69.55958
G1 X99.92 Y95.157 E69.59806
G1 X97.431 Y92.665 E69.71521
G1 X93.303 Y88.54 E69.9093
G1 X90.814 Y86.049 E70.02643
G1 X89.995 Y85.232 E70.0649
G1 X87.506 Y82.741 E70.18202
G1 X86.687 Y81.924 E70.2205
G1 X84.197 Y79.432 E70.33767
G1 X83.378 Y78.615 E70.37614
G1 X80.889 Y76.124 E70.49327
G1 X80.07 Y75.307 E70.53174
G1 X77.581 Y72.816 E70.64887
G1 X76.762 Y71.999 E70.68734
G1 X74.273 Y69.507 E70.80449
G1 X70.145 Y65.382 E70.99858
G1 X67.656 Y62.891 E71.11571
G1 X66.837 Y62.074 E71.15418
G1 X64.348 Y59.582 E71.27133
G1 X63.529 Y58.765 E71.3098
G1 X43.675 Y38.909 E72.24372
G1 X43.412 Y38.684 E72.25523
G1 X43.021 Y38.463 E72.27017
G1 X42.438 Y38.281 E72.29049
G0 F3600 X42.239 Y38.266
G0 X42.262 Y37.968
G0 X42.157 Y36.664
;TYPE:SKIN
G1 F2400 X38.051 Y36.664 E72.42705
G1 X38.051 Y14.863 E73.15216
G1 X41.445 Y14.863 E73.26504
G1 X178.979 Y171.966 E80.20972
G1 X164.721 Y157.707 E80.8804
G1 X160.593 Y153.582 E81.07449
G1 X158.104 Y151.091 E81.19162
G1 X157.285 Y150.274 E81.23009
G1 X154.796 Y147.783 E81.34721
G1 X153.977 Y146.966 E81.38569
G1 X151.487 Y144.474 E81.50286
G1 X150.668 Y143.657 E81.54134
G1 X148.179 Y141.166 E81.65846
G1 X147.36 Y140.349 E81.69693
G1 X144.871 Y137.858 E81.81406
G1 X144.052 Y137.041 E81.85253
G1 X141.562 Y134.549 E81.9697
G1 X140.743 Y133.732 E82.00818
G1 X138.254 Y131.241 E82.1253
G1 X137.435 Y130.424 E82.16377
G1 X134.946 Y127.933 E82.2809
G1 X134.127 Y127.116 E82.31937
G1 X131.638 Y124.624 E82.43652
G1 X127.51 Y120.499 E82.63062
G1 X125.021 Y118.008 E82.74774
G1 X124.202 Y117.191 E82.78621
G1 X121.713 Y114.7 E82.90334
G1 X120.894 Y113.883 E82.94181
G1 X118.404 Y111.391 E83.05898
G1 X117.585 Y110.574 E83.09746
G1 X115.096 Y108.083 E83.21458
G1 X114.277 Y107.266 E83.25306
G1 X111.788 Y104.775 E83.37018
G1 X110.969 Y103.958 E83.40865
G1 X108.48 Y101.466 E83.5258
G1 X104.352 Y97.341 E83.7199
G1 X101.863 Y94.85 E83.83702
G1 X101.044 Y94.033 E83.8755
G1 X98.555 Y91.541 E83.99264
G1 X94.427 Y87.416 E84.18674
G1 X91.938 Y84.925 E84.30386
G1 X91.119 Y84.108 E84.34234
G1 X88.63 Y81.617 E84.45946
G1 X87.811 Y80.8 E84.49794
G1 X85.321 Y78.308 E84.61511
G1 X84.502 Y77.491 E84.65358
G1 X82.013 Y75 E84.7707
G1 X81.194 Y74.183 E84.80918
G1 X78.705 Y71.692 E84.9263
G1 X77.886 Y70.875 E84.96478
G1 X75.397 Y68.383 E85.08192
G1 X71.269 Y64.258 E85.27602
G1 X68.78 Y61.767 E85.39314
G1 X67.961 Y60.95 E85.43162
G1 X65.472 Y58.458 E85.54877
G1 X64.653 Y57.641 E85.58724
G1 X44.756 Y37.74 E86.52323
G1 X44.328 Y37.376 E86.54192
G1 X43.657 Y36.996 E86.56756
G1 X42.74 Y36.71 E86.59951
G1 X42.157 Y36.664 E86.61896
G0 F3600 X47.313 Y37.055
G1 F2400 X47.765 Y37.885 E86.6504
G1 X48.093 Y38.243 E86.66655
G1 X73.29 Y61.572 E87.80865
G1 X73.856 Y61.944 E87.83118
G1 X74.654 Y62.141 E87.85852
G1 X75.475 Y62.063 E87.88594
G1 X76.221 Y61.715 E87.91332
G1 X76.813 Y61.142 E87.94073
G1 X77.179 Y60.401 E87.96821
G1 X77.277 Y59.59 E87.99538
G1 X77.107 Y58.791 E88.02255
G1 X76.758 Y58.216 E88.04493
G1 X51.324 Y29.162 E89.32923
G1 X50.78 Y28.724 E89.35245
G1 X50.051 Y28.476 E89.37807
G1 X49.497 Y28.434 E89.39654
G1 X48.734 Y28.577 E89.42236
G1 X48.005 Y29.006 E89.4505
G1 X47.472 Y29.653 E89.47838
G1 X47.206 Y30.38 E89.50413
G1 X47.171 Y30.79 E89.51781
G1 X47.171 Y36.193 E89.69752
G1 X47.313 Y37.055 E89.72657
G0 F3600 X38.746 Y36.483
G1 F2400 X38.23 Y35.967 E89.75084
G0 F3600 X38.23 Y35.402
G1 F2400 X39.312 Y36.483 E89.80172
G0 F3600 X39.877 Y36.483
G1 F2400 X38.23 Y34.836 E89.87919
G0 F3600 X38.23 Y34.27
G1 F2400 X40.443 Y36.483 E89.98328
G0 F3600 X41.009 Y36.483
G1 F2400 X38.23 Y33.704 E90.11399
G0 F3600 X38.23 Y33.139
G1 F2400 X41.575 Y36.483 E90.27131
G0 F3600 X42.14 Y36.483
G1 F2400 X38.23 Y32.573 E90.45522
G0 F3600 X38.23 Y32.007
G1 F2400 X42.752 Y36.529 E90.66792
G1 X42.822 Y36.599
G0 F3600 X43.567 Y36.779
G1 F2400 X38.23 Y31.442 E90.91896
G0 F3600 X38.23 Y30.876
G1 F2400 X174.661 Y167.307 E97.33626
G1 X174.731 Y167.377
G0 F3600 X170.686 Y162.766
G1 F2400 X38.23 Y30.31 E103.56658
G0 F3600 X38.23 Y29.745
G1 F2400 X166.71 Y158.225 E109.60989
G1 X166.78 Y158.295
G0 F3600 X162.734 Y153.683
G1 F2400 X38.23 Y29.179 E115.46617
G0 F3600 X38.23 Y28.613
G1 F2400 X47.738 Y38.121 E115.9134
G0 F3600 X48.25 Y38.634
