;FLAVOR:Marlin
;TIME:6188
;Filament used: 5.96295m
;Layer height: 0.2
;MINX:44.752
;MINY:44.741
;MINZ:0.15
;MAXX:155.261
;MAXY:155.255
;MAXZ:2.35
;Generated with Cura_SteamEngine 4.8.0
M82 ;absolute extrusion mode
G21 ; set units to millimeters
G90 ; use absolute positioning
M82 ; absolute extrusion mode
M104 S214 ; set extruder temp
M140 S60 ; set bed temp
M190 S60 ; wait for bed temp
M109 S214 ; wait for extruder temp
G28 W ; home all without mesh bed level
G80 ; mesh bed leveling
G92 E0.0 ; reset extruder distance position
G1 Y-3.0 F1000.0 ; go outside print area
G1 X60.0 E9.0 F1000.0 ; intro line
G1 X100.0 E21.5 F1000.0 ; intro line
G92 E0.0 ; reset extruder distance position
G92 E0
G92 E0
G1 F2100 E-0.8
;LAYER_COUNT:12
;LAYER:0
M107
G0 F3600 X61.021 Y60.836 Z0.15
;TYPE:SKIRT
G1 F2100 E0
G1 F1800 X61.487 Y60.376 E0.01633
G1 X62.28 Y59.621 E0.04365
G1 X62.817 Y59.124 E0.0619
G1 X63.703 Y58.338 E0.09144
G1 X64.233 Y57.88 E0.10892
G1 X65.123 Y57.141 E0.13777
G1 X65.719 Y56.662 E0.15685
G1 X66.515 Y56.047 E0.18194
G1 X67.073 Y55.625 E0.19939
G1 X68.107 Y54.877 E0.23123
G1 X68.651 Y54.496 E0.24779
G1 X69.604 Y53.856 E0.27643
G1 X70.105 Y53.529 E0.29135
G1 X71.252 Y52.811 E0.32511
G1 X71.772 Y52.498 E0.34025
G1 X72.757 Y51.926 E0.36866
G1 X73.349 Y51.594 E0.38559
G1 X74.392 Y51.036 E0.4151
G1 X74.984 Y50.729 E0.43174
G1 X76.086 Y50.187 E0.46237
G1 X76.625 Y49.93 E0.47727
G1 X77.808 Y49.396 E0.50964
G1 X78.303 Y49.181 E0.52311
G1 X79.52 Y48.679 E0.55595
G1 X80.014 Y48.485 E0.56918
G1 X81.25 Y48.021 E0.60212
G1 X81.78 Y47.832 E0.61615
G1 X83.012 Y47.419 E0.64857
G1 X83.673 Y47.209 E0.66587
G1 X84.714 Y46.899 E0.69296
G1 X85.392 Y46.708 E0.71053
G1 X86.506 Y46.416 E0.73926
G1 X87.125 Y46.262 E0.75517
G1 X88.384 Y45.977 E0.78737
G1 X88.9 Y45.869 E0.80052
G1 X90.257 Y45.61 E0.83499
G1 X90.54 Y45.56 E0.84215
G1 X92.127 Y45.307 E0.88224
G1 X92.542 Y45.248 E0.8927
G1 X93.922 Y45.079 E0.92738
G1 X94.207 Y45.048 E0.93453
G1 X95.846 Y44.899 E0.97559
G1 X96.256 Y44.869 E0.98584
G1 X97.576 Y44.796 E1.01882
G1 X98.16 Y44.772 E1.0334
G1 X99.423 Y44.745 E1.06491
G1 X99.974 Y44.741 E1.07866
G1 X101.31 Y44.756 E1.11198
G1 X101.971 Y44.775 E1.12848
G1 X103.096 Y44.828 E1.15657
G1 X103.883 Y44.876 E1.17624
G1 X104.865 Y44.956 E1.20082
G1 X105.664 Y45.031 E1.22084
G1 X106.765 Y45.157 E1.24848
G1 X107.579 Y45.261 E1.26895
G1 X108.535 Y45.404 E1.29307
G1 X109.087 Y45.492 E1.30701
G1 X109.423 Y45.549 E1.31551
G1 X110.407 Y45.729 E1.34046
G1 X111.195 Y45.885 E1.3605
G1 X112.192 Y46.102 E1.38596
G1 X112.96 Y46.28 E1.40562
G1 X114.048 Y46.556 E1.43362
G1 X114.729 Y46.738 E1.4512
G1 X115.823 Y47.054 E1.47961
G1 X116.612 Y47.294 E1.50018
G1 X117.549 Y47.601 E1.52478
G1 X118.342 Y47.872 E1.54568
G1 X119.365 Y48.244 E1.57284
G1 X120.03 Y48.497 E1.59059
G1 X121.16 Y48.951 E1.62096
G1 X121.863 Y49.247 E1.63999
G1 X122.734 Y49.632 E1.66375
G1 X123.456 Y49.964 E1.68357
G1 X124.503 Y50.47 E1.71258
G1 X125.101 Y50.768 E1.72924
G1 X126.163 Y51.325 E1.75916
G1 X126.788 Y51.665 E1.77691
G1 X127.738 Y52.206 E1.80418
G1 X128.399 Y52.594 E1.8233
G1 X129.252 Y53.117 E1.84826
G1 X129.95 Y53.558 E1.86885
G1 X130.898 Y54.185 E1.8972
G1 X131.451 Y54.561 E1.91389
G1 X132.495 Y55.303 E1.94584
G1 X133.076 Y55.73 E1.96382
G1 X133.875 Y56.339 E1.98888
G1 X134.488 Y56.821 E2.00833
G1 X135.313 Y57.494 E2.03489
G1 X135.882 Y57.972 E2.05343
G1 X136.76 Y58.739 E2.08251
G1 X137.238 Y59.167 E2.09852
G1 X138.125 Y59.996 E2.1288
G1 X138.608 Y60.46 E2.14551
G1 X139.48 Y61.333 E2.17629
G1 X139.915 Y61.781 E2.19187
G1 X140.749 Y62.671 E2.22229
G1 X141.178 Y63.142 E2.23818
G1 X141.936 Y64.012 E2.26697
G1 X142.359 Y64.51 E2.28327
G1 X143.19 Y65.528 E2.31605
G1 X143.517 Y65.94 E2.32917
G1 X144.328 Y67.002 E2.3625
G1 X144.754 Y67.58 E2.38041
G1 X145.335 Y68.399 E2.40546
G1 X145.737 Y68.983 E2.42315
G1 X146.42 Y70.016 E2.45404
G1 X146.762 Y70.551 E2.46988
G1 X147.374 Y71.548 E2.49906
G1 X147.727 Y72.141 E2.51628
G1 X148.339 Y73.221 E2.54724
G1 X148.647 Y73.782 E2.56321
G1 X149.195 Y74.828 E2.59266
G1 X149.507 Y75.444 E2.60989
G1 X150.004 Y76.476 E2.63846
G1 X150.232 Y76.967 E2.65196
G1 X150.806 Y78.263 E2.68732
G1 X150.996 Y78.709 E2.69942
G1 X151.494 Y79.944 E2.73263
G1 X151.7 Y80.48 E2.74696
G1 X152.127 Y81.652 E2.77807
G1 X152.318 Y82.202 E2.7926
G1 X152.721 Y83.437 E2.825
G1 X152.882 Y83.958 E2.8386
G1 X153.255 Y85.242 E2.87196
G1 X153.382 Y85.708 E2.88401
G1 X153.719 Y87.038 E2.91823
G1 X153.791 Y87.34 E2.92598
G1 X154.148 Y88.961 E2.96738
G1 X154.231 Y89.373 E2.97787
G1 X154.462 Y90.636 E3.00989
G1 X154.551 Y91.162 E3.0232
G1 X154.751 Y92.505 E3.05707
G1 X154.817 Y92.998 E3.06948
G1 X154.973 Y94.358 E3.10363
G1 X155.03 Y94.93 E3.11797
G1 X155.13 Y96.191 E3.14952
G1 X155.163 Y96.689 E3.16197
G1 X155.226 Y98.048 E3.19591
G1 X155.235 Y98.308 E3.2024
G1 X155.261 Y100.02 E3.24511
G1 X155.261 Y100.122 E3.24765
G1 X155.231 Y101.863 E3.29109
G1 X155.209 Y102.479 E3.30647
G1 X155.15 Y103.522 E3.33252
G1 X155.091 Y104.365 E3.3536
G1 X155.007 Y105.309 E3.37725
G1 X154.925 Y106.105 E3.39721
G1 X154.79 Y107.209 E3.42495
G1 X154.672 Y108.07 E3.44663
G1 X154.536 Y108.932 E3.4684
G1 X154.379 Y109.854 E3.49173
G1 X154.197 Y110.799 E3.51574
G1 X154.041 Y111.562 E3.53516
G1 X153.778 Y112.728 E3.56498
G1 X153.602 Y113.451 E3.58354
G1 X153.331 Y114.483 E3.61016
G1 X153.131 Y115.204 E3.62882
G1 X152.814 Y116.267 E3.65649
G1 X152.616 Y116.901 E3.67306
G1 X152.232 Y118.047 E3.70321
G1 X152.021 Y118.651 E3.71917
G1 X151.576 Y119.846 E3.75098
G1 X151.356 Y120.408 E3.76603
G1 X150.877 Y121.573 E3.79746
G1 X150.581 Y122.265 E3.81623
G1 X150.193 Y123.118 E3.83961
G1 X149.874 Y123.801 E3.85841
G1 X149.313 Y124.94 E3.89008
G1 X149.018 Y125.518 E3.90627
G1 X148.478 Y126.53 E3.93488
G1 X148.125 Y127.168 E3.95307
G1 X147.563 Y128.135 E3.98097
G1 X147.202 Y128.738 E3.9985
G1 X146.565 Y129.757 E4.02848
G1 X146.175 Y130.361 E4.04642
G1 X145.567 Y131.264 E4.07357
G1 X145.122 Y131.907 E4.09308
G1 X144.495 Y132.772 E4.11973
G1 X144.086 Y133.321 E4.1368
G1 X143.321 Y134.309 E4.16797
G1 X142.947 Y134.777 E4.18292
G1 X142.176 Y135.709 E4.21309
G1 X141.765 Y136.191 E4.22889
G1 X140.888 Y137.173 E4.26174
G1 X140.702 Y137.376 E4.2686
G1 X139.555 Y138.589 E4.31025
G1 X139.272 Y138.878 E4.32034
G1 X138.309 Y139.828 E4.35408
G1 X137.904 Y140.214 E4.36804
G1 X136.981 Y141.064 E4.39934
G1 X136.484 Y141.507 E4.41595
G1 X135.644 Y142.228 E4.44356
G1 X135.121 Y142.666 E4.46058
G1 X134.151 Y143.445 E4.49161
G1 X133.662 Y143.826 E4.50707
G1 X132.645 Y144.587 E4.53876
G1 X132.12 Y144.968 E4.55494
G1 X131.173 Y145.628 E4.58374
G1 X130.593 Y146.021 E4.60121
G1 X129.612 Y146.656 E4.63036
G1 X129.067 Y146.998 E4.64641
G1 X128.038 Y147.618 E4.67638
G1 X127.476 Y147.946 E4.69261
G1 X126.387 Y148.553 E4.72371
G1 X125.831 Y148.853 E4.73947
G1 X124.76 Y149.402 E4.76949
G1 X124.204 Y149.679 E4.78499
G1 X123.059 Y150.219 E4.81657
G1 X122.552 Y150.449 E4.83046
G1 X121.34 Y150.973 E4.86339
G1 X120.799 Y151.196 E4.87799
G1 X119.655 Y151.644 E4.90864
G1 X119.042 Y151.876 E4.92499
G1 X117.96 Y152.259 E4.95362
G1 X117.322 Y152.476 E4.97043
G1 X116.137 Y152.851 E5.00144
G1 X115.573 Y153.02 E5.01612
G1 X114.339 Y153.366 E5.04809
G1 X113.819 Y153.504 E5.06151
G1 X112.503 Y153.826 E5.09531
G1 X111.881 Y153.968 E5.11122
G1 X110.759 Y154.201 E5.13981
G1 X110.151 Y154.32 E5.15526
G1 X108.867 Y154.542 E5.18777
G1 X108.235 Y154.642 E5.20373
G1 X107.085 Y154.803 E5.2327
G1 X106.456 Y154.88 E5.2485
G1 X105.213 Y155.012 E5.27969
G1 X104.603 Y155.067 E5.29496
G1 X103.359 Y155.155 E5.32607
G1 X103.095 Y155.169 E5.33267
G1 X101.196 Y155.244 E5.38008
G1 X99.503 Y155.255 E5.42231
G1 X99.069 Y155.251 E5.43313
G1 X97.841 Y155.216 E5.46378
G1 X97.102 Y155.185 E5.48223
G1 X96.069 Y155.119 E5.50805
G1 X95.224 Y155.054 E5.52919
G1 X94.178 Y154.95 E5.55541
G1 X93.43 Y154.867 E5.57419
G1 X92.305 Y154.719 E5.60249
G1 X91.636 Y154.623 E5.61935
G1 X90.417 Y154.421 E5.65017
G1 X89.739 Y154.298 E5.66736
G1 X88.635 Y154.077 E5.69545
G1 X87.967 Y153.935 E5.71248
G1 X86.857 Y153.673 E5.74093
G1 X86.124 Y153.489 E5.75979
G1 X85.042 Y153.195 E5.78776
G1 X84.317 Y152.986 E5.80658
G1 X83.272 Y152.665 E5.83385
G1 X82.535 Y152.427 E5.85317
G1 X81.543 Y152.084 E5.87935
G1 X80.901 Y151.853 E5.89637
G1 X79.699 Y151.392 E5.92848
G1 X79.12 Y151.161 E5.94403
G1 X78.041 Y150.706 E5.97324
G1 X77.433 Y150.44 E5.9898
G1 X76.291 Y149.912 E6.02118
G1 X75.761 Y149.658 E6.03584
G1 X74.694 Y149.121 E6.06564
G1 X74.092 Y148.808 E6.08257
G1 X73.059 Y148.244 E6.11193
G1 X72.499 Y147.928 E6.12797
G1 X71.446 Y147.308 E6.15845
G1 X70.812 Y146.921 E6.17698
G1 X69.93 Y146.359 E6.20306
G1 X69.314 Y145.955 E6.22144
G1 X68.307 Y145.264 E6.25191
G1 X67.755 Y144.873 E6.26878
G1 X66.862 Y144.217 E6.29642
G1 X66.209 Y143.723 E6.31685
G1 X65.41 Y143.091 E6.34226
G1 X64.759 Y142.562 E6.36318
G1 X63.989 Y141.909 E6.38837
G1 X63.442 Y141.434 E6.40644
G1 X62.496 Y140.579 E6.43825
G1 X62.012 Y140.127 E6.45477
G1 X61.215 Y139.355 E6.48245
G1 X60.717 Y138.86 E6.49996
G1 X59.897 Y138.013 E6.52937
G1 X59.427 Y137.514 E6.54647
G1 X58.653 Y136.656 E6.57529
G1 X58.158 Y136.092 E6.59401
G1 X57.484 Y135.292 E6.62011
G1 X56.996 Y134.698 E6.63928
G1 X56.3 Y133.815 E6.66733
G1 X55.772 Y133.124 E6.68902
G1 X55.251 Y132.414 E6.71099
G1 X54.804 Y131.789 E6.73016
G1 X54.072 Y130.72 E6.76248
G1 X53.751 Y130.236 E6.77697
G1 X53.06 Y129.151 E6.80905
G1 X52.76 Y128.666 E6.82328
G1 X52.139 Y127.611 E6.85382
G1 X51.798 Y127.015 E6.87095
G1 X51.253 Y126.015 E6.89935
G1 X50.956 Y125.456 E6.91515
G1 X50.381 Y124.312 E6.94708
G1 X50.077 Y123.683 E6.96451
G1 X49.616 Y122.684 E6.99196
G1 X49.372 Y122.139 E7.00685
G1 X48.876 Y120.961 E7.03874
G1 X48.625 Y120.342 E7.0554
G1 X48.213 Y119.266 E7.08414
G1 X48.013 Y118.722 E7.0986
G1 X47.551 Y117.382 E7.13396
G1 X47.458 Y117.095 E7.14148
G1 X46.992 Y115.596 E7.18064
G1 X46.838 Y115.069 E7.19433
G1 X46.536 Y113.952 E7.2232
G1 X46.373 Y113.317 E7.23955
G1 X46.075 Y112.05 E7.27202
G1 X45.939 Y111.426 E7.28795
G1 X45.714 Y110.298 E7.31664
G1 X45.592 Y109.639 E7.33336
G1 X45.398 Y108.468 E7.36297
G1 X45.301 Y107.822 E7.37927
G1 X45.142 Y106.6 E7.41001
G1 X45.107 Y106.293 E7.41771
G1 X44.938 Y104.597 E7.46023
G1 X44.907 Y104.235 E7.46929
G1 X44.818 Y102.817 E7.50473
G1 X44.793 Y102.299 E7.51767
G1 X44.756 Y101.04 E7.54909
G1 X44.752 Y100.746 E7.55643
G1 X44.757 Y98.987 E7.6003
G1 X44.818 Y97.161 E7.64588
G1 X44.85 Y96.571 E7.66062
G1 X44.922 Y95.578 E7.68545
G1 X44.986 Y94.826 E7.70428
G1 X45.117 Y93.593 E7.73521
G1 X45.199 Y92.919 E7.75215
G1 X45.35 Y91.847 E7.77915
G1 X45.455 Y91.165 E7.79637
G1 X45.66 Y89.989 E7.82614
G1 X45.793 Y89.281 E7.84411
G1 X46.02 Y88.196 E7.87177
G1 X46.219 Y87.313 E7.89434
G1 X46.424 Y86.482 E7.9157
G1 X46.65 Y85.609 E7.93819
G1 X46.918 Y84.657 E7.96286
G1 X47.127 Y83.947 E7.98132
G1 X47.489 Y82.802 E8.01128
G1 X47.722 Y82.1 E8.02973
G1 X48.08 Y81.094 E8.05637
G1 X48.329 Y80.422 E8.07424
G1 X48.752 Y79.339 E8.10325
G1 X49.017 Y78.69 E8.12073
G1 X49.49 Y77.597 E8.15044
G1 X49.795 Y76.92 E8.16896
G1 X50.252 Y75.953 E8.19564
G1 X50.542 Y75.36 E8.21211
G1 X51.135 Y74.205 E8.2445
G1 X51.439 Y73.636 E8.26059
G1 X51.999 Y72.632 E8.28927
G1 X52.342 Y72.034 E8.30646
G1 X52.94 Y71.043 E8.33534
G1 X53.3 Y70.462 E8.35239
G1 X53.95 Y69.463 E8.38212
G1 X54.373 Y68.831 E8.40109
G1 X54.965 Y67.985 E8.42685
G1 X55.392 Y67.391 E8.44509
G1 X56.103 Y66.442 E8.47467
G1 X56.484 Y65.945 E8.4903
G1 X57.252 Y64.989 E8.52089
G1 X57.62 Y64.543 E8.53531
G1 X58.501 Y63.516 E8.56906
G1 X58.894 Y63.073 E8.58383
G1 X59.697 Y62.2 E8.61342
G1 X60.11 Y61.762 E8.62844
G1 X61.021 Y60.836 E8.66084
G1 F2100 E7.86084
;MESH:Lid.stl
G0 F3600 X64.611 Y60.918
G0 X65.727 Y61.638
G0 X100.375 Y58.606
G0 X101.059 Y58.317
;TYPE:WALL-INNER
G1 F2100 E8.66084
G1 F1800 X101.62 Y57.845 E8.67913
G1 X101.986 Y57.211 E8.69739
G1 X102.113 Y56.49 E8.71566
G1 X101.986 Y55.769 E8.73392
G1 X101.62 Y55.135 E8.75218
G1 X101.059 Y54.663 E8.77047
G1 X100.369 Y54.413 E8.78878
G1 X99.638 Y54.413 E8.80701
G1 X98.949 Y54.663 E8.82529
G1 X98.388 Y55.134 E8.84357
G1 X98.021 Y55.769 E8.86186
G1 X97.901 Y56.454 E8.87921
G1 X97.908 Y56.579 E8.88233
G1 X98.022 Y57.213 E8.8984
G1 X98.388 Y57.846 E8.91664
G1 X98.949 Y58.317 E8.93491
G1 X99.638 Y58.567 E8.9532
G1 X100.369 Y58.567 E8.97143
G1 X101.059 Y58.317 E8.98974
G0 F3600 X101.108 Y58.403
G0 X96.134 Y89.33
G0 X96.204 Y89.4
G1 F1800 X96.204 Y100.6 E9.26912
G1 X103.804 Y100.6 E9.45871
G1 X103.804 Y89.4 E9.73809
G1 X96.204 Y89.4 E9.92767
G0 F3600 X96.134 Y89.33
G0 X91.739 Y99.618
G0 X91.928 Y100.797
G0 X92.364 Y101.472
G0 X92.427 Y101.396
G1 F1800 X92.995 Y101.717 E9.94395
G1 X93.638 Y101.829 E9.96023
G1 X94.28 Y101.712 E9.97651
G1 X94.843 Y101.384 E9.99276
G1 X95.26 Y100.881 E10.00906
G1 X95.479 Y100.268 E10.0253
G1 X95.478 Y99.615 E10.04159
G1 X95.251 Y99.003 E10.05787
G1 X94.83 Y98.504 E10.07416
G1 X94.263 Y98.183 E10.09041
G1 X93.62 Y98.071 E10.10669
G1 X92.977 Y98.188 E10.12299
G1 X92.414 Y98.516 E10.13925
G1 X91.998 Y99.018 E10.15551
G1 X91.778 Y99.624 E10.17159
G1 X91.779 Y100.286 E10.18811
G1 X92.007 Y100.897 E10.20438
G1 X92.427 Y101.396 E10.22065
G0 F3600 X92.364 Y101.472
G0 X93.513 Y101.846
G0 X105.114 Y101.472
G0 X105.177 Y101.396
G1 F1800 X105.745 Y101.717 E10.23692
G1 X106.388 Y101.829 E10.2532
G1 X107.03 Y101.712 E10.26948
G1 X107.593 Y101.384 E10.28573
G1 X108.01 Y100.881 E10.30203
G1 X108.229 Y100.268 E10.31827
G1 X108.228 Y99.615 E10.33456
G1 X108.001 Y99.003 E10.35084
G1 X107.58 Y98.504 E10.36713
G1 X107.013 Y98.183 E10.38338
G1 X106.37 Y98.071 E10.39966
G1 X105.727 Y98.188 E10.41597
G1 X105.164 Y98.516 E10.43222
G1 X104.748 Y99.018 E10.44848
G1 X104.528 Y99.624 E10.46456
G1 X104.529 Y100.286 E10.48108
G1 X104.757 Y100.897 E10.49735
G1 X105.177 Y101.396 E10.51362
G0 F3600 X105.114 Y101.472
G0 X106.388 Y101.869
G0 X143.885 Y102.116
G0 X144.569 Y101.827
G1 F1800 X145.13 Y101.355 E10.5319
G1 X145.496 Y100.721 E10.55017
G1 X145.623 Y100 E10.56843
G1 X145.496 Y99.279 E10.58669
G1 X145.13 Y98.645 E10.60495
G1 X144.569 Y98.173 E10.62324
G1 X143.879 Y97.923 E10.64155
G1 X143.148 Y97.923 E10.65978
G1 X142.459 Y98.173 E10.67807
G1 X141.898 Y98.644 E10.69634
G1 X141.531 Y99.279 E10.71463
G1 X141.411 Y99.964 E10.73198
G1 X141.418 Y100.089 E10.7351
G1 X141.532 Y100.723 E10.75117
G1 X141.898 Y101.356 E10.76941
G1 X142.459 Y101.827 E10.78768
G1 X143.148 Y102.077 E10.80597
G1 X143.879 Y102.077 E10.8242
G1 X144.569 Y101.827 E10.84251
G0 F3600 X144.618 Y101.913
G0 X135.108 Y137.494
G0 X135.176 Y137.566
G1 F1800 X134.937 Y137.791 E10.8507
G1 X133.894 Y138.726 E10.88564
G1 X133.644 Y138.947 E10.89396
G1 X132.574 Y139.843 E10.92878
G1 X132.313 Y140.058 E10.93721
G1 X131.218 Y140.914 E10.97188
G1 X130.957 Y141.115 E10.9801
G1 X129.826 Y141.939 E11.01501
G1 X129.554 Y142.134 E11.02336
G1 X128.402 Y142.917 E11.0581
G1 X128.118 Y143.106 E11.06661
G1 X126.945 Y143.846 E11.10121
G1 X126.662 Y144.021 E11.10951
G1 X125.454 Y144.727 E11.14441
G1 X125.159 Y144.897 E11.1529
G1 X123.939 Y145.556 E11.18749
G1 X123.633 Y145.718 E11.19613
G1 X122.394 Y146.335 E11.23066
G1 X122.093 Y146.482 E11.23901
G1 X120.525 Y147.196 E11.28199
G1 X118.915 Y147.863 E11.32546
G1 X117.617 Y148.352 E11.36006
G1 X117.303 Y148.469 E11.36842
G1 X115.984 Y148.917 E11.40317
G1 X115.654 Y149.026 E11.41184
G1 X114.009 Y149.523 E11.45471
G1 X112.338 Y149.964 E11.49782
G1 X110.976 Y150.279 E11.53269
G1 X110.657 Y150.349 E11.54084
G1 X108.945 Y150.682 E11.58434
G1 X107.248 Y150.952 E11.62721
G1 X105.52 Y151.168 E11.67065
G1 X104.144 Y151.294 E11.70512
G1 X103.805 Y151.323 E11.7136
G1 X102.083 Y151.422 E11.75663
G1 X100.347 Y151.463 E11.79995
G1 X98.961 Y151.45 E11.83452
G1 X98.631 Y151.445 E11.84275
G1 X97.234 Y151.387 E11.87763
G1 X96.888 Y151.37 E11.88627
G1 X95.506 Y151.267 E11.92084
G1 X95.18 Y151.237 E11.92901
G1 X93.787 Y151.085 E11.96397
G1 X93.456 Y151.045 E11.97228
G1 X92.074 Y150.848 E12.00711
G1 X91.745 Y150.797 E12.01541
G1 X90.37 Y150.552 E12.05025
G1 X90.034 Y150.489 E12.05878
G1 X88.676 Y150.201 E12.09341
G1 X88.357 Y150.13 E12.10156
G1 X87 Y149.792 E12.13644
G1 X86.664 Y149.706 E12.1451
G1 X85.333 Y149.326 E12.17962
