;FLAVOR:Marlin
;TIME:2837
;Filament used: 2.49932m
;Layer height: 0.2
;MINX:69.14
;MINY:87.73
;MINZ:0.15
;MAXX:133.011
;MAXY:112.272
;MAXZ:18.75
;Generated with Cura_SteamEngine 4.8.0
M82 ;absolute extrusion mode
G21 ; set units to millimeters
G90 ; use absolute positioning
M82 ; absolute extrusion mode
M104 S214 ; set extruder temp
M140 S60 ; set bed temp
M190 S60 ; wait for bed temp
M109 S214 ; wait for extruder temp
G28 W ; home all without mesh bed level
G80 ; mesh bed leveling
G92 E0.0 ; reset extruder distance position
G1 Y-3.0 F1000.0 ; go outside print area
G1 X60.0 E9.0 F1000.0 ; intro line
G1 X100.0 E21.5 F1000.0 ; intro line
G92 E0.0 ; reset extruder distance position
G92 E0
G92 E0
G1 F2100 E-0.8
;LAYER_COUNT:94
;LAYER:0
M107
G0 F3600 X70.723 Y88.445 Z0.15
;TYPE:SKIRT
G1 F2100 E0
G1 F1800 X71.177 Y88.159 E0.01338
G1 X71.668 Y87.944 E0.02676
G1 X72.186 Y87.804 E0.04014
G1 X72.74 Y87.742 E0.05405
G1 X73.375 Y87.73 E0.06989
G1 X128.796 Y87.731 E1.45237
G1 X129.451 Y87.74 E1.46871
G1 X129.986 Y87.788 E1.48211
G1 X130.507 Y87.914 E1.49548
G1 X131.004 Y88.116 E1.50887
G1 X131.465 Y88.39 E1.52224
G1 X131.88 Y88.729 E1.53561
G1 X132.241 Y89.126 E1.549
G1 X132.538 Y89.572 E1.56236
G1 X132.766 Y90.058 E1.57575
G1 X132.919 Y90.572 E1.58913
G1 X133.001 Y91.239 E1.60589
G1 X133.011 Y91.66 E1.6164
G1 X133.011 Y107.979 E2.02348
G1 X133.002 Y108.706 E2.04162
G1 X132.955 Y109.24 E2.05499
G1 X132.83 Y109.761 E2.06835
G1 X132.628 Y110.258 E2.08174
G1 X132.355 Y110.72 E2.09512
G1 X132.017 Y111.136 E2.10849
G1 X131.62 Y111.497 E2.12188
G1 X131.174 Y111.795 E2.13526
G1 X130.689 Y112.023 E2.14863
G1 X130.175 Y112.177 E2.16201
G1 X129.503 Y112.26 E2.1789
G1 X129.093 Y112.27 E2.18913
G1 X128.493 Y112.272 E2.2041
G1 X127.454 Y112.27 E2.23002
G1 X73.513 Y112.27 E3.57558
G1 X72.812 Y112.26 E3.59307
G1 X72.277 Y112.212 E3.60647
G1 X71.756 Y112.086 E3.61984
G1 X71.26 Y111.883 E3.63321
G1 X70.799 Y111.609 E3.64659
G1 X70.317 Y111.206 E3.66226
G1 X70.204 Y111.093 E3.66625
G1 X69.855 Y110.686 E3.67962
G1 X69.569 Y110.232 E3.693
G1 X69.354 Y109.741 E3.70638
G1 X69.214 Y109.223 E3.71976
G1 X69.152 Y108.675 E3.73352
G1 X69.14 Y107.981 E3.75083
G1 X69.14 Y92.08 E4.14748
G1 X69.15 Y91.399 E4.16447
G1 X69.198 Y90.865 E4.17785
G1 X69.325 Y90.344 E4.19122
G1 X69.527 Y89.847 E4.20461
G1 X69.802 Y89.386 E4.218
G1 X70.204 Y88.906 E4.23362
G1 X70.316 Y88.794 E4.23757
G1 X70.723 Y88.445 E4.25094
G0 F3600 X70.984 Y88.749
G1 F1800 X71.415 Y88.486 E4.26354
G1 X71.883 Y88.293 E4.27616
G1 X72.375 Y88.177 E4.28877
G1 X72.902 Y88.137 E4.30196
G1 X73.38 Y88.13 E4.31388
G1 X128.791 Y88.131 E5.69612
G1 X129.446 Y88.14 E5.71246
G1 X129.949 Y88.187 E5.72506
G1 X130.439 Y88.313 E5.73768
G1 X130.903 Y88.514 E5.75029
G1 X131.329 Y88.785 E5.76289
G1 X131.708 Y89.121 E5.77552
G1 X132.028 Y89.512 E5.78813
G1 X132.283 Y89.948 E5.80073
G1 X132.467 Y90.419 E5.81334
G1 X132.573 Y90.914 E5.82597
G1 X132.61 Y91.57 E5.84236
G1 X132.611 Y107.974 E6.25156
G1 X132.602 Y108.701 E6.26969
G1 X132.556 Y109.204 E6.28229
G1 X132.431 Y109.694 E6.29491
G1 X132.23 Y110.158 E6.30752
G1 X131.959 Y110.585 E6.32014
G1 X131.624 Y110.964 E6.33275
G1 X131.234 Y111.285 E6.34535
G1 X130.798 Y111.541 E6.35797
G1 X130.327 Y111.724 E6.37057
G1 X129.833 Y111.832 E6.38319
G1 X129.171 Y111.869 E6.39973
G1 X128.494 Y111.872 E6.41661
G1 X127.455 Y111.87 E6.44253
G1 X73.518 Y111.87 E7.788
G1 X72.817 Y111.86 E7.80548
G1 X72.314 Y111.813 E7.81809
G1 X71.824 Y111.687 E7.83071
G1 X71.361 Y111.485 E7.84331
G1 X70.934 Y111.213 E7.85594
G1 X70.487 Y110.81 E7.87095
G1 X70.159 Y110.425 E7.88357
G1 X69.896 Y109.994 E7.89616
G1 X69.703 Y109.526 E7.90879
G1 X69.587 Y109.034 E7.9214
G1 X69.546 Y108.493 E7.93493
G1 X69.54 Y107.978 E7.94778
G1 X69.54 Y92.086 E8.34421
G1 X69.55 Y91.405 E8.3612
G1 X69.598 Y90.902 E8.3738
G1 X69.724 Y90.412 E8.38642
G1 X69.925 Y89.948 E8.39904
G1 X70.197 Y89.522 E8.41164
G1 X70.599 Y89.077 E8.4266
G1 X70.984 Y88.749 E8.43922
G0 F3600 X72.94 Y91.53
;TYPE:SUPPORT
G1 F1800 X127.6 Y91.53 E9.80272
G1 X127.6 Y108.47 E10.22529
G1 X72.94 Y108.47 E11.58879
G1 X72.94 Y91.53 E12.01136
G0 F3600 X73.1 Y92
G1 F1800 X127.44 Y92 E13.36688
G0 F3600 X124 Y91.69
G1 F1800 X124 Y108.31 E13.78146
G0 F3600 X127.44 Y108
G1 F1800 X73.1 Y108 E15.13698
G0 F3600 X76 Y108.31
G1 F1800 X76 Y91.69 E15.55157
G0 F3600 X80 Y91.69
G1 F1800 X80 Y108.31 E15.96615
G0 F3600 X84 Y108.31
G1 F1800 X84 Y91.69 E16.38074
G0 F3600 X88 Y91.69
G1 F1800 X88 Y108.31 E16.79533
G0 F3600 X92 Y108.31
G1 F1800 X92 Y91.69 E17.20992
G0 F3600 X96 Y91.69
G1 F1800 X96 Y108.31 E17.62451
G0 F3600 X100 Y108.31
G1 F1800 X100 Y91.69 E18.03909
G0 F3600 X104 Y91.69
G1 F1800 X104 Y108.31 E18.45368
G0 F3600 X108 Y108.31
G1 F1800 X108 Y91.69 E18.86827
G0 F3600 X112 Y91.69
G1 F1800 X112 Y108.31 E19.28286
G0 F3600 X116 Y108.31
G1 F1800 X116 Y91.69 E19.69744
G0 F3600 X120 Y91.69
G1 F1800 X120 Y108.31 E20.11203
G0 F3600 X127.44 Y104
G1 F1800 X73.1 Y104 E21.46755
G0 F3600 X73.1 Y100
G1 F1800 X127.44 Y100 E22.82306
G0 F3600 X127.44 Y96
G1 F1800 X73.1 Y96 E24.17858
G1 F2100 E23.37858
;MESH:YOUWANTIT.stl
G0 F3600 X127.835 Y96
G0 X128.72 Y96
G0 X129.111 Y108.4
G0 X129.211 Y108.47
;TYPE:WALL-OUTER
G1 F2100 E24.17858
G1 F1800 X128.7 Y108.47 E24.19133
G1 X128.7 Y91.53 E24.6139
G1 X129.211 Y91.53 E24.62664
G1 X129.211 Y108.47 E25.04921
G0 F3600 X129.011 Y108.47
G0 X128.908 Y108.26
M104 S213
;TYPE:SKIN
G1 F1800 X128.954 Y108.024 E25.05104
G1 X128.954 Y91.902 E25.17338
G0 F3600 X128.811 Y91.841
G1 F2100 E24.37338
;MESH:NONMESH
G0 F600 X128.811 Y91.841 Z0.35
G0 F3600 X128.714 Y108.456
G0 X127.835 Y108.456
G0 X76 Y108.47
;TIME_ELAPSED:43.167024
;LAYER:1
M106 S255
;TYPE:SUPPORT
G1 F2100 E25.17338
G1 F2700 X80 Y108.47 E25.30642
G1 X80 Y91.53 E25.86985
G1 X84 Y91.53 E26.00289
G1 X84 Y108.47 E26.56632
G1 X88 Y108.47 E26.69936
G1 X88 Y91.53 E27.26279
G1 X92 Y91.53 E27.39583
G1 X92 Y108.47 E27.95925
G1 X96 Y108.47 E28.09229
G1 X96 Y91.53 E28.65572
G1 X100 Y91.53 E28.78876
G1 X100 Y108.47 E29.35219
G1 X104 Y108.47 E29.48523
G1 X104 Y91.53 E30.04865
G1 X108 Y91.53 E30.18169
G1 X108 Y108.47 E30.74512
G1 X112 Y108.47 E30.87816
G1 X112 Y91.53 E31.44159
G1 X116 Y91.53 E31.57463
G1 X116 Y108.47 E32.13806
G1 X120 Y108.47 E32.2711
G1 X120 Y91.53 E32.83452
G1 X124 Y91.53 E32.96756
G1 X124 Y108.47 E33.53099
G1 X127.108 Y108.47 E33.63436
G1 X127.108 Y91.53 E34.19779
G1 X124 Y91.53 E34.30116
G0 F5400 X76 Y108.47
G1 F2700 X72.94 Y108.47 E34.40294
G1 X72.94 Y91.53 E34.96636
G1 X76 Y91.53 E35.06814
G1 X76 Y108.47 E35.63157
G1 F2100 E34.83157
;MESH:YOUWANTIT.stl
G0 F5400 X127.326 Y108.056
G0 X128.605 Y108.056
G0 X129.172 Y108.07
;TYPE:WALL-INNER
G1 F2100 E35.63157
G1 F2700 X128.591 Y108.07 E35.65089
G1 X128.591 Y91.93 E36.18771
G1 X129.172 Y91.93 E36.20703
G1 X129.172 Y108.07 E36.74385
G0 F5400 X129.572 Y108.47
;TYPE:WALL-OUTER
G1 F1800 X128.191 Y108.47 E36.78979
G1 X128.191 Y91.53 E37.35321
G1 X129.572 Y91.53 E37.39914
G1 X129.572 Y108.47 E37.96257
G0 F5400 X129.372 Y108.47
G0 X128.77 Y107.685
;TYPE:SKIN
G1 F1800 X128.991 Y107.465 E37.97294
G0 F5400 X128.77 Y107.12
G1 F1800 X128.991 Y106.899 E37.98334
G0 F5400 X128.77 Y106.554
G1 F1800 X128.991 Y106.334 E37.99371
G0 F5400 X128.77 Y105.988
G1 F1800 X128.991 Y105.768 E38.00408
G0 F5400 X128.77 Y105.423
G1 F1800 X128.991 Y105.202 E38.01448
G0 F5400 X128.77 Y104.857
G1 F1800 X128.991 Y104.636 E38.02487
G0 F5400 X128.77 Y104.291
G1 F1800 X128.991 Y104.071 E38.03524
G0 F5400 X128.77 Y103.726
G1 F1800 X128.991 Y103.505 E38.04564
G0 F5400 X128.77 Y103.16
G1 F1800 X128.991 Y102.939 E38.05603
G0 F5400 X128.77 Y102.594
G1 F1800 X128.991 Y102.374 E38.0664
G0 F5400 X128.77 Y102.029
G1 F1800 X128.991 Y101.808 E38.0768
G0 F5400 X128.77 Y101.463
G1 F1800 X128.991 Y101.242 E38.0872
G0 F5400 X128.77 Y100.897
G1 F1800 X128.991 Y100.677 E38.09757
G0 F5400 X128.77 Y100.332
G1 F1800 X128.991 Y100.111 E38.10796
G0 F5400 X128.77 Y99.766
G1 F1800 X128.991 Y99.545 E38.11836
G0 F5400 X128.77 Y99.2
G1 F1800 X128.991 Y98.98 E38.12873
G0 F5400 X128.77 Y98.635
G1 F1800 X128.991 Y98.414 E38.13912
G0 F5400 X128.77 Y98.069
G1 F1800 X128.991 Y97.848 E38.14952
G0 F5400 X128.77 Y97.503
G1 F1800 X128.991 Y97.283 E38.15989
G0 F5400 X128.77 Y96.937
G1 F1800 X128.991 Y96.717 E38.17026
G0 F5400 X128.77 Y96.372
G1 F1800 X128.991 Y96.151 E38.18066
G0 F5400 X128.77 Y95.806
G1 F1800 X128.991 Y95.585 E38.19105
G0 F5400 X128.77 Y95.24
G1 F1800 X128.991 Y95.02 E38.20142
G0 F5400 X128.77 Y94.675
G1 F1800 X128.991 Y94.454 E38.21182
G0 F5400 X128.77 Y94.109
G1 F1800 X128.991 Y93.888 E38.22221
G0 F5400 X128.77 Y93.543
G1 F1800 X128.991 Y93.323 E38.23259
G0 F5400 X128.77 Y92.978
G1 F1800 X128.991 Y92.757 E38.24298
G0 F5400 X128.77 Y92.412
G1 F1800 X128.991 Y92.191 E38.25338
G1 F2100 E37.45338
;MESH:NONMESH
G0 F600 X128.991 Y92.191 Z0.55
G0 F5400 X128.605 Y108.056
G0 X127.326 Y108.056
G0 X76 Y108.47
;TIME_ELAPSED:57.362592
;LAYER:2
;TYPE:SUPPORT
G1 F2100 E38.25338
G1 F3600 X80 Y108.47 E38.38642
G1 X80 Y91.53 E38.94984
G1 X84 Y91.53 E39.08288
G1 X84 Y108.47 E39.64631
G1 X88 Y108.47 E39.77935
G1 X88 Y91.53 E40.34278
G1 X92 Y91.53 E40.47582
G1 X92 Y108.47 E41.03925
G1 X96 Y108.47 E41.17229
G1 X96 Y91.53 E41.73571
G1 X100 Y91.53 E41.86875
G1 X100 Y108.47 E42.43218
G1 X104 Y108.47 E42.56522
G1 X104 Y91.53 E43.12865
G1 X108 Y91.53 E43.26169
G1 X108 Y108.47 E43.82511
G1 X112 Y108.47 E43.95816
G1 X112 Y91.53 E44.52158
G1 X116 Y91.53 E44.65462
G1 X116 Y108.47 E45.21805
G1 X120 Y108.47 E45.35109
G1 X120 Y91.53 E45.91452
G1 X124 Y91.53 E46.04756
G1 X124 Y108.47 E46.61098
G1 X126.426 Y108.47 E46.69167
G1 X126.426 Y91.53 E47.2551
G1 X124 Y91.53 E47.33579
G0 F7200 X76 Y108.47
G1 F3600 X72.94 Y108.47 E47.43756
G1 X72.94 Y91.53 E48.00099
G1 X76 Y91.53 E48.10277
G1 X76 Y108.47 E48.66619
G1 F2100 E47.86619
;MESH:YOUWANTIT.stl
G0 F7200 X126.643 Y108.056
G0 X127.922 Y108.056
G0 X129.306 Y107.87
G0 X129.407 Y107.87
;TYPE:WALL-INNER
G1 F2100 E48.66619
G1 F3600 X129.407 Y108.07 E48.67285
G1 X129.207 Y108.07 E48.67715
G1 X127.908 Y108.07 E48.72036
G1 X127.908 Y91.93 E49.25718
G1 X129.406 Y91.93 E49.307
G1 X129.407 Y107.87 E49.83717
G0 F7200 X129.807 Y108.27
;TYPE:WALL-OUTER
G1 F1800 X129.807 Y108.47 E49.84382
G1 X129.607 Y108.47 E49.84813
G1 X127.508 Y108.47 E49.91794
G1 X127.508 Y91.53 E50.48137
G1 X129.806 Y91.53 E50.5578
G1 X129.807 Y108.27 E51.11457
G0 F7200 X129.807 Y108.47
G0 X129.337 Y108
G0 X129.017 Y107.68
;TYPE:SKIN
G1 F1800 X128.298 Y107.68 E51.13849
G1 X128.298 Y92.32 E51.64936
G1 X129.016 Y92.32 E51.67324
G1 X129.017 Y107.68 E52.18412
G0 F7200 X128.836 Y107.34
G1 F1800 X128.477 Y106.981 E52.201
G0 F7200 X128.836 Y106.774
G1 F1800 X128.477 Y106.415 E52.21789
G0 F7200 X128.836 Y106.208
G1 F1800 X128.477 Y105.849 E52.23478
G0 F7200 X128.836 Y105.643
G1 F1800 X128.477 Y105.283 E52.25169
G0 F7200 X128.836 Y105.077
G1 F1800 X128.477 Y104.718 E52.26857
G0 F7200 X128.836 Y104.511
G1 F1800 X128.477 Y104.152 E52.28546
G0 F7200 X128.836 Y103.946
G1 F1800 X128.477 Y103.586 E52.30237
G0 F7200 X128.836 Y103.38
G1 F1800 X128.477 Y103.021 E52.31926
G0 F7200 X128.836 Y102.814
G1 F1800 X128.477 Y102.455 E52.33614
G0 F7200 X128.836 Y102.249
G1 F1800 X128.477 Y101.889 E52.35305
G0 F7200 X128.836 Y101.683
G1 F1800 X128.477 Y101.324 E52.36994
G0 F7200 X128.836 Y101.117
G1 F1800 X128.477 Y100.758 E52.38682
G0 F7200 X128.836 Y100.551
G1 F1800 X128.477 Y100.192 E52.40371
G0 F7200 X128.836 Y99.986
G1 F1800 X128.477 Y99.627 E52.4206
G0 F7200 X128.836 Y99.42
G1 F1800 X128.477 Y99.061 E52.43748
G0 F7200 X128.836 Y98.854
G1 F1800 X128.477 Y98.495 E52.45437
G0 F7200 X128.836 Y98.289
G1 F1800 X128.477 Y97.93 E52.47126
G0 F7200 X128.836 Y97.723
G1 F1800 X128.477 Y97.364 E52.48814
G0 F7200 X128.836 Y97.157
G1 F1800 X128.477 Y96.798 E52.50503
G0 F7200 X128.836 Y96.592
G1 F1800 X128.477 Y96.232 E52.52194
G0 F7200 X128.836 Y96.026
G1 F1800 X128.477 Y95.667 E52.53882
G0 F7200 X128.836 Y95.46
G1 F1800 X128.477 Y95.101 E52.55571
G0 F7200 X128.836 Y94.895
G1 F1800 X128.477 Y94.535 E52.57262
G0 F7200 X128.836 Y94.329
G1 F1800 X128.477 Y93.97 E52.58951
G0 F7200 X128.836 Y93.763
G1 F1800 X128.477 Y93.404 E52.60639
G0 F7200 X128.836 Y93.198
G1 F1800 X128.477 Y92.838 E52.6233
G0 F7200 X128.704 Y92.5
G1 F1800 X128.836 Y92.632 E52.62951
G1 F2100 E51.82951
;MESH:NONMESH
G0 F600 X128.836 Y92.632 Z0.75
G0 F7200 X127.922 Y91.944
G0 X126.643 Y91.944
G0 X76 Y91.53
;TIME_ELAPSED:71.100612
;LAYER:3
;TYPE:SUPPORT
G1 F2100 E52.62951
G1 F3600 X72.94 Y91.53 E52.73129
G1 X72.94 Y108.47 E53.29471
G1 X76 Y108.47 E53.39649
G1 X76 Y91.53 E53.95992
G1 X76.923 Y91.53 E53.99062
G1 X76.923 Y108.47 E54.55404
G1 X76 Y108.47 E54.58474
G1 F2100 E53.78474
;MESH:YOUWANTIT.stl
G0 F7200 X125.961 Y108.056
G0 X127.24 Y108.056
G0 X129.442 Y107.87
G0 X129.543 Y107.87
;TYPE:WALL-INNER
G1 F2100 E54.58474
G1 F3600 X129.543 Y108.07 E54.59139
G1 X129.343 Y108.07 E54.5957
G1 X127.226 Y108.07 E54.66611
G1 X127.226 Y91.93 E55.20293
G1 X129.542 Y91.93 E55.27996
G1 X129.543 Y107.87 E55.81013
G0 F7200 X129.943 Y108.27
;TYPE:WALL-OUTER
G1 F1800 X129.943 Y108.47 E55.81678
G1 X129.743 Y108.47 E55.82109
G1 X126.826 Y108.47 E55.91811
G1 X126.826 Y91.53 E56.48153
G1 X129.942 Y91.53 E56.58517
G1 X129.943 Y108.27 E57.14195
G0 F7200 X129.943 Y108.47
G0 X129.473 Y108
G0 X129.153 Y107.68
;TYPE:SKIN
G1 F1800 X127.616 Y107.68 E57.19307
G1 X127.616 Y92.32 E57.70394
G1 X129.152 Y92.32 E57.75503
G1 X129.153 Y107.68 E58.26591
G0 F7200 X128.971 Y106.919
G1 F1800 X128.39 Y107.5 E58.29324
G0 F7200 X127.825 Y107.5
G1 F1800 X128.971 Y106.353 E58.34716
G0 F7200 X128.971 Y105.788
G1 F1800 X127.795 Y106.964 E58.40248
G0 F7200 X127.795 Y106.398
G1 F1800 X128.971 Y105.222 E58.45779
G0 F7200 X128.971 Y104.656
G1 F1800 X127.795 Y105.832 E58.51311
G0 F7200 X127.795 Y105.266
G1 F1800 X128.971 Y104.091 E58.5684
G0 F7200 X128.971 Y103.525
G1 F1800 X127.795 Y104.701 E58.62372
G0 F7200 X127.795 Y104.135
G1 F1800 X128.971 Y102.959 E58.67903
G0 F7200 X128.971 Y102.394
G1 F1800 X127.795 Y103.569 E58.73432
G0 F7200 X127.795 Y103.004
G1 F1800 X128.971 Y101.828 E58.78964
G0 F7200 X128.971 Y101.262
G1 F1800 X127.795 Y102.438 E58.84495
G0 F7200 X127.795 Y101.872
G1 F1800 X128.971 Y100.696 E58.90027
G0 F7200 X128.971 Y100.131
G1 F1800 X127.795 Y101.307 E58.95559
G0 F7200 X127.795 Y100.741
G1 F1800 X128.971 Y99.565 E59.0109
G0 F7200 X128.971 Y98.999
G1 F1800 X127.795 Y100.175 E59.06622
G0 F7200 X127.795 Y99.61
G1 F1800 X128.971 Y98.434 E59.12153
G0 F7200 X128.971 Y97.868
G1 F1800 X127.795 Y99.044 E59.17685
G0 F7200 X127.795 Y98.478
G1 F1800 X128.971 Y97.302 E59.23216
G0 F7200 X128.971 Y96.737
G1 F1800 X127.795 Y97.913 E59.28748
G0 F7200 X127.795 Y97.347
G1 F1800 X128.971 Y96.171 E59.34279
G0 F7200 X128.971 Y95.605
G1 F1800 X127.795 Y96.781 E59.39811
G0 F7200 X127.795 Y96.216
G1 F1800 X128.971 Y95.04 E59.45342
G0 F7200 X128.971 Y94.474
G1 F1800 X127.795 Y95.65 E59.50874
G0 F7200 X127.795 Y95.084
G1 F1800 X128.971 Y93.908 E59.56406
G0 F7200 X128.971 Y93.343
G1 F1800 X127.795 Y94.518 E59.61935
G0 F7200 X127.795 Y93.953
G1 F1800 X128.971 Y92.777 E59.67466
G0 F7200 X128.683 Y92.499
G1 F1800 X127.795 Y93.387 E59.71643
G0 F7200 X127.795 Y92.821
G1 F1800 X128.117 Y92.499 E59.73158
G1 F2100 E58.93158
;MESH:NONMESH
G0 F600 X128.117 Y92.499 Z0.95
G0 F7200 X127.24 Y91.944
G0 X125.961 Y91.944
G0 X72.94 Y91.53
;TIME_ELAPSED:80.372272
;LAYER:4
;TYPE:SUPPORT
G1 F2100 E59.73158
G1 F3600 X72.94 Y108.47 E60.295
G1 X75.98 Y108.47 E60.39612
G1 X75.98 Y91.53 E60.95954
G1 X72.94 Y91.53 E61.06065
G1 F2100 E60.26065
;MESH:YOUWANTIT.stl
G0 F7200 X76.458 Y91.944
G0 X77.737 Y91.944
G0 X129.259 Y92.854
;TYPE:FILL
G1 F2100 E61.06065
G1 F3600 X129.482 Y92.794 E61.06833
G0 F7200 X129.259 Y94.369
G1 F3600 X129.483 Y94.593 E61.07887
G0 F7200 X129.483 Y99.005
G1 F3600 X129.259 Y99.065 E61.08658
G0 F7200 X129.259 Y102.854
G1 F3600 X129.483 Y103.079 E61.09714
G0 F7200 X129.484 Y103.279
G1 F3600 X129.259 Y104.118 E61.12603
G1 X129.234 Y104.214
G0 F7200 X129.483 Y105.217
G1 F3600 X129.26 Y105.277 E61.13371
G0 F7200 X129.544 Y107.87
G0 X129.645 Y107.87
;TYPE:WALL-INNER
G1 F3600 X129.645 Y108.07 E61.14037
G1 X129.445 Y108.07 E61.14467
